projects/Assignment 1 (week 3)/res/luts/Deepseagreen.CUBE
#Created by: Adobe Photoshop Export Color Lookup Plugin
TITLE "omg"
#LUT size
LUT_3D_SIZE 5
#data domain
#LUT data points
DOMAIN_MIN 0.000000 0.000000 0.000000
DOMAIN_MAX 0.903226 0.903226 0.903226
0.000000 0.000000 0.000000
0.000000 0.000000 0.000000
0.297119 0.070587 0.070587
0.595581 0.177032 0.177032
0.916565 0.291504 0.291504
0.088226 0.542999 0.088226
0.088226 0.542999 0.088226
0.296356 0.540436 0.067322
0.574036 0.536896 0.026642
0.904449 0.577118 0.234192
0.135010 0.738342 0.135010
0.135010 0.738342 0.135010
0.312347 0.736633 0.121643
0.576660 0.730835 0.060394
0.892487 0.741486 0.156586
0.168823 0.879547 0.168823
0.168823 0.879547 0.168823
0.327057 0.878174 0.158417
0.583679 0.873596 0.116638
0.880585 0.865784 0.000000
0.196350 0.994537 0.196350
0.196350 0.994537 0.196350
0.340881 0.993378 0.187592
0.590515 0.989471 0.154144
0.882690 0.981201 0.027435
0.000000 0.000000 0.000000
0.000000 0.000000 0.000000
0.297119 0.070587 0.070587
0.595581 0.177032 0.177032
0.916565 0.291504 0.291504
0.088226 0.542999 0.088226
0.088226 0.542999 0.088226
0.296356 0.540436 0.067322
0.574036 0.536896 0.026642
0.904449 0.577118 0.234192
0.135010 0.738342 0.135010
0.135010 0.738342 0.135010
0.312347 0.736633 0.121643
0.576660 0.730835 0.060394
0.892487 0.741486 0.156586
0.168823 0.879547 0.168823
0.168823 0.879547 0.168823
0.327057 0.878174 0.158417
0.583679 0.873596 0.116638
0.880585 0.865784 0.000000
0.196350 0.994537 0.196350
0.196350 0.994537 0.196350
0.340881 0.993378 0.187592
0.590515 0.989471 0.154144
0.882690 0.981201 0.027435
0.000000 0.000000 0.000000
0.000000 0.000000 0.000000
0.297119 0.070587 0.070587
0.595581 0.177032 0.177032
0.916565 0.291504 0.291504
0.088226 0.542999 0.088226
0.088226 0.542999 0.088226
0.296356 0.540436 0.067322
0.574036 0.536896 0.026642
0.904449 0.577118 0.234192
0.135010 0.738342 0.135010
0.135010 0.738342 0.135010
0.312347 0.736633 0.121643
0.576660 0.730835 0.060394
0.892487 0.741486 0.156586
0.168823 0.879547 0.168823
0.168823 0.879547 0.168823
0.327057 0.878174 0.158417
0.583679 0.873596 0.116638
0.880585 0.865784 0.000000
0.196350 0.994537 0.196350
0.196350 0.994537 0.196350
0.340881 0.993378 0.187592
0.590515 0.989471 0.154144
0.882690 0.981201 0.027435
0.151459 0.151459 0.450989
0.151459 0.151459 0.450989
0.319214 0.139709 0.447754
0.595581 0.177032 0.458832
0.916565 0.291504 0.507019
0.088226 0.542999 0.436371
0.088226 0.542999 0.436371
0.332367 0.502716 0.423279
0.527313 0.505035 0.444458
0.884735 0.623016 0.554047
0.135010 0.738342 0.446533
0.135010 0.738342 0.446533
0.371460 0.715424 0.468567
0.583649 0.694458 0.490387
0.874695 0.750458 0.535339
0.168823 0.879547 0.456177
0.168823 0.879547 0.456177
0.393738 0.867981 0.491608
0.624756 0.854431 0.525970
0.864716 0.852356 0.516205
0.196350 0.994537 0.465485
0.196350 0.994537 0.465485
0.410522 0.991089 0.507690
0.651276 0.985168 0.549866
0.892090 0.977905 0.534119
0.321289 0.321289 0.867096
0.321289 0.321289 0.867096
0.420074 0.316376 0.865692
0.634125 0.299164 0.861023
0.916565 0.291504 0.859009
0.271454 0.590546 0.854065
0.271454 0.590546 0.854065
0.434021 0.601105 0.837067
0.651794 0.631012 0.809235
0.877350 0.647980 0.833435
0.209900 0.751251 0.841125
0.209900 0.751251 0.841125
0.405792 0.743744 0.825256
0.646667 0.738098 0.798248
0.865540 0.781311 0.831116
0.168823 0.879547 0.834442
0.168823 0.879547 0.834442
0.393738 0.867981 0.826416
0.656464 0.846375 0.814392
0.867371 0.859863 0.837067
0.196350 0.994537 0.838745
0.196350 0.994537 0.838745
0.410522 0.991089 0.844360
0.695129 0.982574 0.862457
0.919189 0.975159 0.886505
