projects/Assignment 1 (week 3)/res/luts/Deepseagreen.CUBE
#Created by: Adobe Photoshop Export Color Lookup Plugin
TITLE "omg"
#LUT size
LUT_3D_SIZE 8
#data domain
#LUT data points
DOMAIN_MIN 0.000000 0.000000 0.000000
DOMAIN_MAX 0.903226 0.903226 0.903226
0.000000 0.000000 0.000000
0.000000 0.000000 0.000000
0.000000 0.000000 0.000000
0.202240 0.075623 0.075623
0.382507 0.101013 0.101013
0.552155 0.161530 0.161530
0.729340 0.224701 0.224701
0.916565 0.291504 0.291504
0.058105 0.417358 0.058105
0.058105 0.417358 0.058105
0.058105 0.417358 0.058105
0.205383 0.415649 0.044525
0.367249 0.411346 0.003937
0.538788 0.422485 0.090057
0.720062 0.446930 0.181091
0.909729 0.479919 0.260742
0.096283 0.576752 0.096283
0.096283 0.576752 0.096283
0.096283 0.576752 0.096283
0.219635 0.575653 0.087646
0.374695 0.572784 0.061584
0.530090 0.567963 0.000000
0.710541 0.580475 0.120880
0.902740 0.604614 0.224701
0.123474 0.690338 0.123474
0.123474 0.690338 0.123474
0.123474 0.690338 0.123474
0.232513 0.689453 0.116730
0.381714 0.687164 0.097656
0.534698 0.683380 0.054993
0.701141 0.680206 0.000793
0.895905 0.700073 0.182159
0.145569 0.782410 0.145569
0.145569 0.782410 0.145569
0.145569 0.782410 0.145569
0.244476 0.781647 0.139832
0.388519 0.779724 0.124207
0.539185 0.776489 0.092773
0.701630 0.771454 0.009491
0.889099 0.779907 0.125824
0.164459 0.861298 0.164459
0.164459 0.861298 0.164459
0.164459 0.861298 0.164459
0.255676 0.860657 0.159424
0.395081 0.858948 0.145935
0.543549 0.856110 0.120056
0.704742 0.851685 0.063202
0.882294 0.849579 0.017365
0.181183 0.931274 0.181183
0.181183 0.931274 0.181183
0.181183 0.931274 0.181183
0.266296 0.930664 0.176666
0.401459 0.929138 0.164673
0.547882 0.926575 0.142303
0.707855 0.922577 0.097809
0.880402 0.916687 0.000000
0.196350 0.994537 0.196350
0.196350 0.994537 0.196350
0.196350 0.994537 0.196350
0.276367 0.993988 0.192230
0.407715 0.992584 0.181305
0.552124 0.990265 0.161377
0.710907 0.986603 0.123779
0.882690 0.981201 0.027435
0.000000 0.000000 0.000000
0.000000 0.000000 0.000000
0.000000 0.000000 0.000000
0.202240 0.075623 0.075623
0.382507 0.101013 0.101013
0.552155 0.161530 0.161530
0.729340 0.224701 0.224701
0.916565 0.291504 0.291504
0.058105 0.417358 0.058105
0.058105 0.417358 0.058105
0.058105 0.417358 0.058105
0.205383 0.415649 0.044525
0.367249 0.411346 0.003937
0.538788 0.422485 0.090057
0.720062 0.446930 0.181091
0.909729 0.479919 0.260742
0.096283 0.576752 0.096283
0.096283 0.576752 0.096283
0.096283 0.576752 0.096283
0.219635 0.575653 0.087646
0.374695 0.572784 0.061584
0.530090 0.567963 0.000000
0.710541 0.580475 0.120880
0.902740 0.604614 0.224701
0.123474 0.690338 0.123474
0.123474 0.690338 0.123474
0.123474 0.690338 0.123474
0.232513 0.689453 0.116730
0.381714 0.687164 0.097656
0.534698 0.683380 0.054993
0.701141 0.680206 0.000793
0.895905 0.700073 0.182159
0.145569 0.782410 0.145569
0.145569 0.782410 0.145569
0.145569 0.782410 0.145569
0.244476 0.781647 0.139832
0.388519 0.779724 0.124207
0.539185 0.776489 0.092773
0.701630 0.771454 0.009491
0.889099 0.779907 0.125824
0.164459 0.861298 0.164459
0.164459 0.861298 0.164459
0.164459 0.861298 0.164459
0.255676 0.860657 0.159424
0.395081 0.858948 0.145935
0.543549 0.856110 0.120056
0.704742 0.851685 0.063202
0.882294 0.849579 0.017365
0.181183 0.931274 0.181183
0.181183 0.931274 0.181183
0.181183 0.931274 0.181183
0.266296 0.930664 0.176666
0.401459 0.929138 0.164673
0.547882 0.926575 0.142303
0.707855 0.922577 0.097809
0.880402 0.916687 0.000000
0.196350 0.994537 0.196350
0.196350 0.994537 0.196350
0.196350 0.994537 0.196350
0.276367 0.993988 0.192230
0.407715 0.992584 0.181305
0.552124 0.990265 0.161377
0.710907 0.986603 0.123779
0.882690 0.981201 0.027435
0.000000 0.000000 0.000000
0.000000 0.000000 0.000000
0.000000 0.000000 0.000000
0.202240 0.075623 0.075623
0.382507 0.101013 0.101013
0.552155 0.161530 0.161530
0.729340 0.224701 0.224701
0.916565 0.291504 0.291504
0.058105 0.417358 0.058105
0.058105 0.417358 0.058105
0.058105 0.417358 0.058105
0.205383 0.415649 0.044525
0.367249 0.411346 0.003937
0.538788 0.422485 0.090057
0.720062 0.446930 0.181091
0.909729 0.479919 0.260742
0.096283 0.576752 0.096283
0.096283 0.576752 0.096283
0.096283 0.576752 0.096283
0.219635 0.575653 0.087646
0.374695 0.572784 0.061584
0.530090 0.567963 0.000000
0.710541 0.580475 0.120880
0.902740 0.604614 0.224701
0.123474 0.690338 0.123474
0.123474 0.690338 0.123474
0.123474 0.690338 0.123474
0.232513 0.689453 0.116730
0.381714 0.687164 0.097656
0.534698 0.683380 0.054993
0.701141 0.680206 0.000793
0.895905 0.700073 0.182159
0.145569 0.782410 0.145569
0.145569 0.782410 0.145569
0.145569 0.782410 0.145569
0.244476 0.781647 0.139832
0.388519 0.779724 0.124207
0.539185 0.776489 0.092773
0.701630 0.771454 0.009491
0.889099 0.779907 0.125824
0.164459 0.861298 0.164459
0.164459 0.861298 0.164459
0.164459 0.861298 0.164459
0.255676 0.860657 0.159424
0.395081 0.858948 0.145935
0.543549 0.856110 0.120056
0.704742 0.851685 0.063202
0.882294 0.849579 0.017365
0.181183 0.931274 0.181183
0.181183 0.931274 0.181183
0.181183 0.931274 0.181183
0.266296 0.930664 0.176666
0.401459 0.929138 0.164673
0.547882 0.926575 0.142303
0.707855 0.922577 0.097809
0.880402 0.916687 0.000000
0.196350 0.994537 0.196350
0.196350 0.994537 0.196350
0.196350 0.994537 0.196350
0.276367 0.993988 0.192230
0.407715 0.992584 0.181305
0.552124 0.990265 0.161377
0.710907 0.986603 0.123779
0.882690 0.981201 0.027435
0.000000 0.000000 0.000000
0.000000 0.000000 0.000000
0.000000 0.000000 0.000000
0.202240 0.075623 0.075623
0.382507 0.101013 0.101013
0.552155 0.161530 0.161530
0.729340 0.224701 0.224701
0.916565 0.291504 0.291504
0.058105 0.417358 0.058105
0.058105 0.417358 0.058105
0.058105 0.417358 0.058105
0.205383 0.415649 0.044525
0.367249 0.411346 0.003937
0.538788 0.422485 0.090057
0.720062 0.446930 0.181091
0.909729 0.479919 0.260742
0.096283 0.576752 0.096283
0.096283 0.576752 0.096283
0.096283 0.576752 0.096283
0.219635 0.575653 0.087646
0.374695 0.572784 0.061584
0.530090 0.567963 0.000000
0.710541 0.580475 0.120880
0.902740 0.604614 0.224701
0.123474 0.690338 0.123474
0.123474 0.690338 0.123474
0.123474 0.690338 0.123474
0.232513 0.689453 0.116730
0.381714 0.687164 0.097656
0.534698 0.683380 0.054993
0.701141 0.680206 0.000793
0.895905 0.700073 0.182159
0.145569 0.782410 0.145569
0.145569 0.782410 0.145569
0.145569 0.782410 0.145569
0.244476 0.781647 0.139832
0.388519 0.779724 0.124207
0.539185 0.776489 0.092773
0.701630 0.771454 0.009491
0.889099 0.779907 0.125824
0.164459 0.861298 0.164459
0.164459 0.861298 0.164459
0.164459 0.861298 0.164459
0.255676 0.860657 0.159424
0.395081 0.858948 0.145935
0.543549 0.856110 0.120056
0.704742 0.851685 0.063202
0.882294 0.849579 0.017365
0.181183 0.931274 0.181183
0.181183 0.931274 0.181183
0.181183 0.931274 0.181183
0.266296 0.930664 0.176666
0.401459 0.929138 0.164673
0.547882 0.926575 0.142303
0.707855 0.922577 0.097809
0.880402 0.916687 0.000000
0.196350 0.994537 0.196350
0.196350 0.994537 0.196350
0.196350 0.994537 0.196350
0.276367 0.993988 0.192230
0.407715 0.992584 0.181305
0.552124 0.990265 0.161377
0.710907 0.986603 0.123779
0.882690 0.981201 0.027435
0.082733 0.082733 0.187897
0.082733 0.082733 0.187897
0.082733 0.082733 0.187897
0.202240 0.075623 0.188751
0.382507 0.101013 0.211456
0.552155 0.161530 0.245148
0.729340 0.224701 0.289063
0.916565 0.291504 0.341858
0.058105 0.417358 0.194153
0.058105 0.417358 0.194153
0.058105 0.417358 0.194153
0.229858 0.388519 0.219879
0.349609 0.385010 0.212921
0.519135 0.417206 0.244080
0.708771 0.455658 0.293243
0.905273 0.494904 0.348297
0.096283 0.576752 0.209229
0.096283 0.576752 0.209229
0.096283 0.576752 0.209229
0.256439 0.558350 0.246216
0.380829 0.555756 0.239105
0.517334 0.551422 0.226746
0.699799 0.578064 0.264923
0.898499 0.611969 0.324646
0.123474 0.690338 0.222809
0.123474 0.690338 0.222809
0.123474 0.690338 0.222809
0.272461 0.677765 0.262421
0.396271 0.675629 0.255493
0.533997 0.672089 0.243378
0.690948 0.671295 0.233643
0.891846 0.703003 0.299561
0.145569 0.782410 0.235352
0.145569 0.782410 0.235352
0.145569 0.782410 0.235352
0.285187 0.773743 0.275452
0.407196 0.771912 0.268707
0.544708 0.768860 0.257019
0.697571 0.764038 0.237488
0.885254 0.779755 0.272125
0.164459 0.861298 0.247009
0.164459 0.861298 0.247009
0.164459 0.861298 0.247009
0.296356 0.855591 0.286865
0.416199 0.853943 0.280334
0.552887 0.851196 0.269073
0.705719 0.846924 0.250275
0.878693 0.846985 0.241394
0.181183 0.931274 0.258026
0.181183 0.931274 0.258026
0.181183 0.931274 0.258026
0.306519 0.927826 0.297333
0.424103 0.926331 0.291016
0.559753 0.923859 0.280090
0.712219 0.919983 0.262024
0.878998 0.914246 0.232635
0.196350 0.994537 0.268463
0.196350 0.994537 0.268463
0.196350 0.994537 0.268463
0.316010 0.993011 0.307068
0.431335 0.991638 0.300934
0.565796 0.989349 0.290375
0.717743 0.985779 0.272980
0.884369 0.980499 0.244873
0.130371 0.130371 0.399200
0.130371 0.130371 0.399200
0.130371 0.130371 0.399200
0.236115 0.123932 0.397400
0.383728 0.106110 0.392822
0.552155 0.161530 0.408997
0.729340 0.224701 0.434357
0.916565 0.291504 0.468475
0.058105 0.417358 0.383545
0.058105 0.417358 0.383545
0.058105 0.417358 0.383545
0.233490 0.385162 0.358673
0.360626 0.382263 0.365204
0.489929 0.420166 0.401825
0.682373 0.482574 0.462494
0.892883 0.539001 0.518616
0.096283 0.576752 0.390594
0.096283 0.576752 0.390594
0.096283 0.576752 0.390594
0.261841 0.555695 0.393646
0.402771 0.527222 0.408081
0.498322 0.523224 0.405457
0.674927 0.576263 0.450195
0.886780 0.635254 0.506134
0.123474 0.690338 0.397278
0.123474 0.690338 0.397278
0.123474 0.690338 0.397278
0.278503 0.675903 0.410522
0.434113 0.650970 0.439789
0.537384 0.646912 0.437408
0.667633 0.651459 0.437866
0.880798 0.713318 0.493683
0.145569 0.782410 0.403748
0.145569 0.782410 0.403748
0.145569 0.782410 0.403748
0.291534 0.772461 0.422119
0.455383 0.753418 0.461273
0.563141 0.749756 0.459290
0.688995 0.745636 0.451477
0.874878 0.780640 0.480988
0.164459 0.861298 0.410034
0.164459 0.861298 0.410034
0.164459 0.861298 0.410034
0.302734 0.854736 0.431427
0.471252 0.841339 0.477234
0.581665 0.838165 0.475616
0.710449 0.834351 0.467651
0.868958 0.840515 0.468018
0.181183 0.931274 0.416138
0.181183 0.931274 0.416138
0.181183 0.931274 0.416138
0.312927 0.927338 0.439484
0.483948 0.919006 0.489990
0.595978 0.916290 0.488647
0.726624 0.912750 0.480621
0.875549 0.907562 0.468536
0.196350 0.994537 0.422089
0.196350 0.994537 0.422089
0.196350 0.994537 0.422089
0.322388 0.992859 0.446777
0.494629 0.989014 0.500702
0.607635 0.986725 0.499603
0.739471 0.983398 0.491516
0.889984 0.978516 0.479401
0.218994 0.218994 0.616455
0.218994 0.218994 0.616455
0.218994 0.218994 0.616455
0.292206 0.215363 0.615417
0.417816 0.205811 0.612793
0.559052 0.188660 0.608398
0.729340 0.224701 0.618103
0.916565 0.291504 0.640472
0.173798 0.444458 0.604889
0.173798 0.444458 0.604889
0.173798 0.444458 0.604889
0.293427 0.441498 0.583405
0.420502 0.444824 0.552338
0.513672 0.446930 0.545685
0.678070 0.489349 0.595551
0.890259 0.549255 0.660217
0.109619 0.578674 0.592926
0.109619 0.578674 0.592926
0.109619 0.578674 0.592926
0.267273 0.559906 0.572662
0.408569 0.533966 0.543915
0.528534 0.546936 0.554230
0.666260 0.594940 0.602295
0.874237 0.672913 0.681152
0.123474 0.690338 0.595062
0.123474 0.690338 0.595062
0.123474 0.690338 0.595062
0.278503 0.675903 0.587921
0.434113 0.650970 0.578186
0.556061 0.639252 0.583801
0.662445 0.650818 0.599426
0.868652 0.735352 0.677643
0.145569 0.782410 0.598969
0.145569 0.782410 0.598969
0.145569 0.782410 0.598969
0.291534 0.772461 0.599945
0.455383 0.753418 0.604736
0.589417 0.737732 0.619202
0.691437 0.733856 0.624664
0.863800 0.787994 0.670898
0.164459 0.861298 0.602814
0.164459 0.861298 0.602814
0.164459 0.861298 0.602814
0.302734 0.854736 0.608765
0.471252 0.841339 0.623566
0.616577 0.827698 0.647827
0.725555 0.822479 0.654968
0.858978 0.835907 0.664185
0.181183 0.931274 0.606598
0.181183 0.931274 0.606598
0.181183 0.931274 0.606598
0.312927 0.927338 0.615906
0.483948 0.919006 0.638000
0.638489 0.909363 0.670837
0.753845 0.904510 0.680267
0.873718 0.900177 0.673981
0.196350 0.994537 0.610321
0.196350 0.994537 0.610321
0.196350 0.994537 0.610321
0.322388 0.992859 0.622070
0.494629 0.989014 0.649628
0.656525 0.983917 0.689697
0.777283 0.980133 0.701416
0.900848 0.975952 0.694885
0.321289 0.321289 0.867096
0.321289 0.321289 0.867096
0.321289 0.321289 0.867096
0.372345 0.318939 0.866425
0.473785 0.312958 0.864746
0.599304 0.302643 0.861938
0.745758 0.285706 0.857544
0.916565 0.291504 0.859009
0.294220 0.496765 0.859711
0.294220 0.496765 0.859711
0.294220 0.496765 0.859711
0.379395 0.508667 0.850830
0.510773 0.535950 0.832733
0.614716 0.542267 0.825592
0.730072 0.535950 0.821930
0.890259 0.549255 0.841003
0.263550 0.617279 0.852203
0.263550 0.617279 0.852203
0.263550 0.617279 0.852203
0.358643 0.620605 0.843628
0.498505 0.629883 0.826263
0.626678 0.647888 0.808899
0.727325 0.650513 0.803589
0.874237 0.672913 0.831940
0.229218 0.710602 0.844818
0.229218 0.710602 0.844818
0.229218 0.710602 0.844818
0.337036 0.708649 0.836548
0.486176 0.706299 0.819916
0.619232 0.709290 0.803528
0.734436 0.723785 0.799194
0.866638 0.750885 0.829926
0.188507 0.789063 0.837463
0.188507 0.789063 0.837463
0.188507 0.789063 0.837463
0.313995 0.783295 0.829529
0.473694 0.772308 0.813599
0.611755 0.763672 0.798218
0.733521 0.769623 0.796600
0.866150 0.808441 0.833801
0.164459 0.861298 0.833801
0.164459 0.861298 0.833801
0.164459 0.861298 0.833801
0.302734 0.854736 0.828339
0.471252 0.841339 0.817505
0.616577 0.827698 0.807465
0.742950 0.823792 0.807739
0.868256 0.851746 0.837982
0.181183 0.931274 0.836304
0.181183 0.931274 0.836304
0.181183 0.931274 0.836304
0.312927 0.927338 0.835541
0.483948 0.919006 0.834686
0.638489 0.909363 0.835968
0.774841 0.902771 0.843109
0.884369 0.903595 0.853241
0.196350 0.994537 0.838745
0.196350 0.994537 0.838745
0.196350 0.994537 0.838745
0.322388 0.992859 0.841431
0.494629 0.989014 0.848145
0.656525 0.983917 0.858978
0.803497 0.978699 0.874756
0.919189 0.975159 0.886505
