projects/Assignment 1 (week 3)/res/luts/Deepseagreen.CUBE
#Created by: Adobe Photoshop Export Color Lookup Plugin
TITLE "omg"
#LUT size
LUT_3D_SIZE 32
#data domain
DOMAIN_MIN 0.0 0.0 0.0
DOMAIN_MAX 1.0 1.0 1.0
#LUT data points
0.000000 0.000000 0.000000
0.000000 0.000000 0.000000
0.000000 0.000000 0.000000
0.000000 0.000000 0.000000
0.000000 0.000000 0.000000
0.000000 0.000000 0.000000
0.000000 0.000000 0.000000
0.000000 0.000000 0.000000
0.000000 0.000000 0.000000
0.000000 0.000000 0.000000
0.000000 0.000000 0.000000
0.142029 0.068909 0.068909
0.202240 0.075623 0.075623
0.251984 0.067810 0.067810
0.297119 0.070587 0.070587
0.340210 0.085938 0.085938
0.382507 0.101013 0.101013
0.424622 0.116058 0.116058
0.466797 0.131104 0.131104
0.509247 0.146240 0.146240
0.552155 0.161530 0.161530
0.595581 0.177032 0.177032
0.639587 0.192719 0.192719
0.684143 0.208618 0.208618
0.729340 0.224701 0.224701
0.775116 0.241058 0.241058
0.821625 0.257629 0.257629
0.868835 0.274475 0.274475
0.916565 0.291504 0.291504
0.965057 0.308807 0.308807
1.000000 0.326294 0.326294
1.000000 0.336304 0.336304
0.000000 0.000000 0.000000
0.000000 0.000000 0.000000
0.000000 0.000000 0.000000
0.000000 0.000000 0.000000
0.000000 0.000000 0.000000
0.000000 0.000000 0.000000
0.000000 0.000000 0.000000
0.000000 0.000000 0.000000
0.000000 0.000000 0.000000
0.000000 0.000000 0.000000
0.000000 0.000000 0.000000
0.142029 0.068909 0.068909
0.202240 0.075623 0.075623
0.251984 0.067810 0.067810
0.297119 0.070587 0.070587
0.340210 0.085938 0.085938
0.382507 0.101013 0.101013
0.424622 0.116058 0.116058
0.466797 0.131104 0.131104
0.509247 0.146240 0.146240
0.552155 0.161530 0.161530
0.595581 0.177032 0.177032
0.639587 0.192719 0.192719
0.684143 0.208618 0.208618
0.729340 0.224701 0.224701
0.775116 0.241058 0.241058
0.821625 0.257629 0.257629
0.868835 0.274475 0.274475
0.916565 0.291504 0.291504
0.965057 0.308807 0.308807
1.000000 0.326294 0.326294
1.000000 0.336304 0.336304
0.034973 0.252747 0.034973
0.034973 0.252747 0.034973
0.034973 0.252747 0.034973
0.034973 0.252747 0.034973
0.034973 0.252747 0.034973
0.034973 0.252747 0.034973
0.034973 0.252747 0.034973
0.034973 0.252747 0.034973
0.034973 0.252747 0.034973
0.034973 0.252747 0.034973
0.034973 0.252747 0.034973
0.144897 0.251129 0.026520
0.196960 0.249695 0.019257
0.240906 0.248138 0.011139
0.286804 0.251404 0.014343
0.331482 0.256134 0.039276
0.374969 0.261444 0.063293
0.417999 0.267303 0.084259
0.460938 0.273804 0.103638
0.503998 0.280914 0.122101
0.547424 0.288666 0.140106
0.591278 0.297058 0.157806
0.635651 0.306061 0.175323
0.680573 0.315674 0.192810
0.726044 0.325897 0.210266
0.772064 0.336731 0.227783
0.818817 0.348145 0.245361
0.866211 0.360138 0.263123
0.914124 0.372620 0.280914
0.962769 0.385681 0.298950
1.000000 0.399231 0.317108
1.000000 0.407135 0.327454
0.043549 0.356537 0.043549
0.043549 0.356537 0.043549
0.043549 0.356537 0.043549
0.043549 0.356537 0.043549
0.043549 0.356537 0.043549
0.043549 0.356537 0.043549
0.043549 0.356537 0.043549
0.043549 0.356537 0.043549
0.043549 0.356537 0.043549
0.043549 0.356537 0.043549
0.043549 0.356537 0.043549
0.149414 0.355438 0.035095
0.201172 0.354462 0.027557
0.245117 0.353394 0.019348
0.286102 0.352203 0.009857
0.325867 0.350800 0.000000
0.367188 0.351349 0.003357
0.411224 0.355530 0.035889
0.454926 0.360168 0.066803
0.498627 0.365326 0.092041
0.542603 0.371033 0.114563
0.586914 0.377289 0.135620
0.631683 0.384064 0.155792
0.676941 0.391449 0.175323
0.722687 0.399384 0.194519
0.768982 0.407898 0.213409
0.815948 0.416992 0.232269
0.863556 0.426666 0.251068
0.911652 0.436890 0.269836
0.960480 0.447662 0.288635
1.000000 0.459015 0.307526
1.000000 0.465668 0.318268
0.058105 0.417358 0.058105
0.058105 0.417358 0.058105
0.058105 0.417358 0.058105
0.058105 0.417358 0.058105
0.058105 0.417358 0.058105
0.058105 0.417358 0.058105
0.058105 0.417358 0.058105
0.058105 0.417358 0.058105
0.058105 0.417358 0.058105
0.058105 0.417358 0.058105
0.058105 0.417358 0.058105
0.155090 0.416443 0.051117
0.205383 0.415649 0.044525
0.248505 0.414795 0.036499
0.288910 0.413788 0.027008
0.328278 0.412659 0.016327
0.367249 0.411346 0.003937
0.406281 0.409851 0.000000
0.450165 0.413300 0.022369
0.494385 0.417664 0.060455
0.538788 0.422485 0.090057
0.583466 0.427856 0.115387
0.628540 0.433685 0.138489
0.674072 0.440033 0.160217
0.720062 0.446930 0.181091
0.766571 0.454376 0.201416
0.813721 0.462341 0.221436
0.861481 0.470886 0.241180
0.909729 0.479919 0.260742
0.958679 0.489563 0.280273
1.000000 0.499695 0.299774
1.000000 0.505707 0.310822
0.069489 0.464600 0.069489
0.069489 0.464600 0.069489
0.069489 0.464600 0.069489
0.069489 0.464600 0.069489
0.069489 0.464600 0.069489
0.069489 0.464600 0.069489
0.069489 0.464600 0.069489
0.069489 0.464600 0.069489
0.069489 0.464600 0.069489
0.069489 0.464600 0.069489
0.069489 0.464600 0.069489
0.160065 0.463806 0.063385
0.209106 0.463104 0.057739
0.251526 0.462341 0.051025
0.291473 0.461487 0.042603
0.330475 0.460480 0.031860
0.369171 0.459351 0.019623
0.407959 0.458038 0.005524
0.447052 0.456543 0.000000
0.490479 0.459198 0.017975
0.535278 0.463501 0.060974
0.580322 0.468262 0.093353
0.625671 0.473480 0.120544
0.671448 0.479218 0.145050
0.717651 0.485413 0.167908
0.764343 0.492096 0.189758
0.811646 0.499329 0.210968
0.859558 0.507111 0.231720
0.907959 0.515350 0.252136
0.957001 0.524170 0.272369
1.000000 0.533508 0.292480
1.000000 0.539032 0.303833
0.079285 0.505951 0.079285
0.079285 0.505951 0.079285
0.079285 0.505951 0.079285
0.079285 0.505951 0.079285
0.079285 0.505951 0.079285
0.079285 0.505951 0.079285
0.079285 0.505951 0.079285
0.079285 0.505951 0.079285
0.079285 0.505951 0.079285
0.079285 0.505951 0.079285
0.079285 0.505951 0.079285
0.164856 0.505219 0.073944
0.212708 0.504639 0.069031
0.254456 0.503937 0.063141
0.293945 0.503143 0.055939
0.332611 0.502258 0.046936
0.371033 0.501251 0.035034
0.409637 0.500061 0.021027
0.448517 0.498749 0.005066
0.487823 0.497223 0.000000
0.531799 0.499908 0.019318
0.577179 0.504272 0.065918
0.622833 0.509033 0.099915
0.668854 0.514252 0.128265
0.715271 0.519928 0.153687
0.762146 0.526093 0.177429
0.809631 0.532745 0.200012
0.857697 0.539886 0.221954
0.906189 0.547546 0.243286
0.955383 0.555695 0.264313
1.000000 0.564392 0.285095
1.000000 0.569519 0.296783
0.088226 0.542999 0.088226
0.088226 0.542999 0.088226
0.088226 0.542999 0.088226
0.088226 0.542999 0.088226
0.088226 0.542999 0.088226
0.088226 0.542999 0.088226
0.088226 0.542999 0.088226
0.088226 0.542999 0.088226
0.088226 0.542999 0.088226
0.088226 0.542999 0.088226
0.088226 0.542999 0.088226
0.169495 0.542328 0.083282
0.216248 0.541779 0.078766
0.257324 0.541138 0.073639
0.296356 0.540436 0.067322
0.334717 0.539612 0.059479
0.372864 0.538696 0.049500
0.411255 0.537628 0.036255
0.449982 0.536407 0.020355
0.489136 0.535034 0.002411
0.528931 0.533478 0.000000
0.574036 0.536896 0.026642
0.619995 0.541290 0.074829
0.666260 0.546112 0.109283
0.712891 0.551392 0.138214
0.759979 0.557098 0.164276
0.807617 0.563293 0.188599
0.855835 0.569977 0.211792
0.904449 0.577118 0.234192
0.953766 0.584778 0.256073
1.000000 0.592896 0.277557
1.000000 0.597748 0.289612
0.096283 0.576752 0.096283
0.096283 0.576752 0.096283
0.096283 0.576752 0.096283
0.096283 0.576752 0.096283
0.096283 0.576752 0.096283
0.096283 0.576752 0.096283
0.096283 0.576752 0.096283
0.096283 0.576752 0.096283
0.096283 0.576752 0.096283
0.096283 0.576752 0.096283
0.096283 0.576752 0.096283
0.173889 0.576172 0.091797
0.219635 0.575653 0.087646
0.260132 0.575043 0.082916
0.298767 0.574402 0.077179
0.336761 0.573639 0.070282
0.374695 0.572784 0.061584
0.412872 0.571777 0.050385
0.451416 0.570679 0.035461
0.490448 0.569397 0.017578
0.530090 0.567963 0.000000
0.570923 0.566895 0.000000
0.617157 0.571014 0.040375
0.663696 0.575531 0.086792
0.710541 0.580475 0.120880
0.757813 0.585815 0.150024
0.805603 0.591644 0.176422
0.853973 0.597900 0.201141
0.902740 0.604614 0.224701
0.952148 0.611847 0.247589
1.000000 0.619537 0.269867
1.000000 0.624115 0.282288
0.103760 0.607971 0.103760
0.103760 0.607971 0.103760
0.103760 0.607971 0.103760
0.103760 0.607971 0.103760
0.103760 0.607971 0.103760
0.103760 0.607971 0.103760
0.103760 0.607971 0.103760
0.103760 0.607971 0.103760
0.103760 0.607971 0.103760
0.103760 0.607971 0.103760
0.103760 0.607971 0.103760
0.178192 0.607422 0.099548
0.222961 0.606934 0.095734
0.262878 0.606384 0.091370
0.301086 0.605743 0.086121
0.338806 0.605042 0.079773
0.376465 0.604248 0.072052
0.414459 0.603333 0.062286
0.452850 0.602264 0.049652
0.491730 0.601105 0.032471
0.531250 0.599762 0.012451
0.571442 0.598267 0.000000
0.614349 0.598694 0.000000
0.661133 0.602936 0.057922
0.708191 0.607605 0.100952
0.755646 0.612640 0.134369
0.803619 0.618134 0.163422
0.852112 0.624084 0.189972
0.901031 0.630432 0.214874
0.950562 0.637299 0.238800
1.000000 0.644592 0.261932
1.000000 0.648926 0.274780
0.110779 0.637085 0.110779
0.110779 0.637085 0.110779
0.110779 0.637085 0.110779
0.110779 0.637085 0.110779
0.110779 0.637085 0.110779
0.110779 0.637085 0.110779
0.110779 0.637085 0.110779
0.110779 0.637085 0.110779
0.110779 0.637085 0.110779
0.110779 0.637085 0.110779
0.110779 0.637085 0.110779
0.182281 0.636566 0.106781
0.226227 0.636108 0.103210
0.265594 0.635590 0.099121
0.303406 0.635010 0.094299
0.340820 0.634369 0.088470
0.378235 0.633606 0.081390
0.416016 0.632721 0.072662
0.454254 0.631744 0.061554
0.492981 0.630646 0.047028
0.532410 0.629364 0.027283
0.572510 0.627960 0.004761
0.613281 0.626404 0.000000
0.658539 0.628723 0.016876
0.705841 0.633118 0.076691
0.753479 0.637939 0.116730
0.801636 0.643127 0.149261
0.850281 0.648773 0.178070
0.899323 0.654846 0.204590
0.948975 0.661346 0.229675
0.999115 0.668335 0.253754
1.000000 0.672485 0.267059
0.117279 0.664459 0.117279
0.117279 0.664459 0.117279
0.117279 0.664459 0.117279
0.117279 0.664459 0.117279
0.117279 0.664459 0.117279
0.117279 0.664459 0.117279
0.117279 0.664459 0.117279
0.117279 0.664459 0.117279
0.117279 0.664459 0.117279
0.117279 0.664459 0.117279
0.117279 0.664459 0.117279
0.186340 0.663971 0.113556
0.229401 0.663544 0.110199
0.268250 0.663055 0.106354
0.305695 0.662506 0.101807
0.342804 0.661865 0.096375
0.380005 0.661133 0.089874
0.417572 0.660309 0.081848
0.455658 0.659393 0.071960
0.494263 0.658325 0.059265
0.533569 0.657166 0.042114
0.573547 0.655823 0.019653
0.614227 0.654327 0.000000
0.655975 0.653076 0.000000
0.703491 0.657288 0.043976
0.751343 0.661835 0.096191
0.799652 0.666809 0.133698
0.848450 0.672211 0.165314
0.897614 0.678009 0.193726
0.947388 0.684235 0.220184
0.997620 0.690887 0.245300
1.000000 0.694855 0.259125
0.123474 0.690338 0.123474
0.123474 0.690338 0.123474
0.123474 0.690338 0.123474
0.123474 0.690338 0.123474
0.123474 0.690338 0.123474
0.123474 0.690338 0.123474
0.123474 0.690338 0.123474
0.123474 0.690338 0.123474
0.123474 0.690338 0.123474
0.123474 0.690338 0.123474
0.123474 0.690338 0.123474
0.190247 0.689850 0.119904
0.232513 0.689453 0.116730
0.270874 0.688995 0.113129
0.307922 0.688446 0.108856
0.344757 0.687866 0.103760
0.381714 0.687164 0.097656
0.419128 0.686401 0.090271
0.457031 0.685516 0.081207
0.495514 0.684509 0.069855
0.534698 0.683380 0.054993
0.574585 0.682098 0.034393
0.615173 0.680695 0.009277
0.656464 0.679138 0.000000
0.701141 0.680206 0.000793
0.749176 0.684601 0.070984
0.797668 0.689362 0.116150
0.846588 0.694519 0.151489
0.895905 0.700073 0.182159
0.945801 0.706055 0.210266
0.996124 0.712463 0.236603
1.000000 0.716278 0.250946
0.129364 0.714905 0.129364
0.129364 0.714905 0.129364
0.129364 0.714905 0.129364
0.129364 0.714905 0.129364
0.129364 0.714905 0.129364
0.129364 0.714905 0.129364
0.129364 0.714905 0.129364
0.129364 0.714905 0.129364
0.129364 0.714905 0.129364
0.129364 0.714905 0.129364
0.129364 0.714905 0.129364
0.194092 0.714447 0.125977
0.235596 0.714050 0.122894
0.273438 0.713593 0.119476
0.310150 0.713104 0.115448
0.346710 0.712524 0.110657
0.383453 0.711884 0.104889
0.420654 0.711151 0.097992
0.458405 0.710297 0.089630
0.496735 0.709320 0.079224
0.535828 0.708252 0.066071
0.575623 0.707062 0.048492
0.616119 0.705719 0.024048
0.657349 0.704224 0.000000
0.699249 0.702545 0.000000
0.747040 0.706329 0.035583
0.795685 0.710907 0.095734
0.844757 0.715851 0.136292
0.894196 0.721191 0.169891
0.944214 0.726959 0.199799
0.994659 0.733124 0.227509
1.000000 0.736816 0.242462
0.135010 0.738342 0.135010
0.135010 0.738342 0.135010
0.135010 0.738342 0.135010
0.135010 0.738342 0.135010
0.135010 0.738342 0.135010
0.135010 0.738342 0.135010
0.135010 0.738342 0.135010
0.135010 0.738342 0.135010
0.135010 0.738342 0.135010
0.135010 0.738342 0.135010
0.135010 0.738342 0.135010
0.197784 0.737915 0.131744
0.238586 0.737518 0.128815
0.276001 0.737091 0.125519
0.312347 0.736633 0.121643
0.348633 0.736084 0.117126
0.385132 0.735443 0.111725
0.422150 0.734741 0.105194
0.459778 0.733917 0.097351
0.497986 0.733002 0.087830
0.536957 0.731995 0.075836
0.576660 0.730835 0.060394
0.617065 0.729523 0.038788
0.658203 0.728088 0.010956
0.700043 0.726532 0.000000
0.744873 0.727142 0.000000
0.793701 0.731567 0.070557
0.842926 0.736328 0.119293
0.892487 0.741486 0.156586
0.942627 0.747040 0.188812
0.993195 0.752991 0.218018
1.000000 0.756561 0.233643
0.140381 0.760803 0.140381
0.140381 0.760803 0.140381
0.140381 0.760803 0.140381
0.140381 0.760803 0.140381
0.140381 0.760803 0.140381
0.140381 0.760803 0.140381
0.140381 0.760803 0.140381
0.140381 0.760803 0.140381
0.140381 0.760803 0.140381
0.140381 0.760803 0.140381
0.140381 0.760803 0.140381
0.201416 0.760376 0.137238
0.241577 0.760010 0.134460
0.278503 0.759613 0.131317
0.314514 0.759155 0.127625
0.350525 0.758636 0.123230
0.386810 0.758026 0.118134
0.423676 0.757324 0.112000
0.461121 0.756561 0.104584
0.499207 0.755676 0.095703
0.538055 0.754700 0.084686
0.577667 0.753571 0.070770
0.617981 0.752319 0.052063
0.659058 0.750977 0.025574
0.700836 0.749451 0.000000
0.743317 0.747772 0.000000
0.791718 0.751434 0.035156
0.841095 0.756042 0.099579
0.890808 0.761017 0.142059
0.941040 0.766388 0.177032
0.991699 0.772156 0.208069
1.000000 0.775604 0.224487
0.145569 0.782410 0.145569
0.145569 0.782410 0.145569
0.145569 0.782410 0.145569
0.145569 0.782410 0.145569
0.145569 0.782410 0.145569
0.145569 0.782410 0.145569
0.145569 0.782410 0.145569
0.145569 0.782410 0.145569
0.145569 0.782410 0.145569
0.145569 0.782410 0.145569
0.145569 0.782410 0.145569
0.205017 0.781982 0.142517
0.244476 0.781647 0.139832
0.280945 0.781250 0.136810
0.316681 0.780823 0.133301
0.352417 0.780304 0.129120
0.388519 0.779724 0.124207
0.425171 0.779053 0.118378
0.462463 0.778320 0.111420
0.500427 0.777466 0.103027
0.539185 0.776489 0.092773
0.578674 0.775421 0.079987
0.618927 0.774231 0.063477
0.659912 0.772919 0.040253
0.701630 0.771454 0.009491
0.744049 0.769836 0.000000
0.789734 0.770630 0.000000
0.839264 0.775085 0.075531
0.889099 0.779907 0.125824
0.939453 0.785126 0.164429
0.990234 0.790710 0.197571
1.000000 0.794037 0.214905
0.150513 0.803131 0.150513
0.150513 0.803131 0.150513
0.150513 0.803131 0.150513
0.150513 0.803131 0.150513
0.150513 0.803131 0.150513
0.150513 0.803131 0.150513
0.150513 0.803131 0.150513
0.150513 0.803131 0.150513
0.150513 0.803131 0.150513
0.150513 0.803131 0.150513
0.150513 0.803131 0.150513
0.208496 0.802765 0.147614
0.247345 0.802399 0.145020
0.283417 0.802032 0.142090
0.318787 0.801605 0.138702
0.354279 0.801117 0.134735
0.390167 0.800568 0.130035
0.426666 0.799927 0.124390
0.463806 0.799194 0.117798
0.501648 0.798370 0.109894
0.540283 0.797455 0.100250
0.579681 0.796417 0.088470
0.619843 0.795258 0.073486
0.660767 0.793976 0.053223
0.702423 0.792572 0.024109
0.744781 0.791016 0.000000
0.787933 0.789307 0.000000
0.837433 0.793457 0.043030
0.887390 0.798126 0.107391
0.937866 0.803162 0.150757
0.988770 0.808594 0.186493
1.000000 0.811829 0.204865
0.155304 0.823151 0.155304
0.155304 0.823151 0.155304
0.155304 0.823151 0.155304
0.155304 0.823151 0.155304
0.155304 0.823151 0.155304
0.155304 0.823151 0.155304
0.155304 0.823151 0.155304
0.155304 0.823151 0.155304
0.155304 0.823151 0.155304
0.155304 0.823151 0.155304
0.155304 0.823151 0.155304
0.211914 0.822784 0.152466
0.250153 0.822449 0.149994
0.285797 0.822083 0.147156
0.320892 0.821655 0.143890
0.356140 0.821198 0.140045
0.391815 0.820648 0.135529
0.428131 0.820038 0.130219
0.465149 0.819336 0.123840
0.502838 0.818542 0.116333
0.541382 0.817627 0.107269
0.580688 0.816650 0.096191
0.620789 0.815521 0.082397
0.661621 0.814301 0.064392
0.703186 0.812927 0.038666
0.745514 0.811401 0.004913
0.788605 0.809753 0.000000
0.835602 0.811218 0.000610
0.885712 0.815765 0.085480
0.936310 0.820679 0.135712
0.987305 0.825928 0.174713
1.000000 0.829102 0.194275
0.159943 0.842560 0.159943
0.159943 0.842560 0.159943
0.159943 0.842560 0.159943
0.159943 0.842560 0.159943
0.159943 0.842560 0.159943
0.159943 0.842560 0.159943
0.159943 0.842560 0.159943
0.159943 0.842560 0.159943
0.159943 0.842560 0.159943
0.159943 0.842560 0.159943
0.159943 0.842560 0.159943
0.215240 0.842194 0.157227
0.252960 0.841858 0.154785
0.288208 0.841492 0.152039
0.322968 0.841095 0.148895
0.357971 0.840637 0.145233
0.393433 0.840118 0.140869
0.429596 0.839508 0.135681
0.466461 0.838837 0.129639
0.504059 0.838074 0.122406
0.542480 0.837189 0.113861
0.581696 0.836243 0.103455
0.621674 0.835144 0.090637
0.662476 0.833954 0.074249
0.703979 0.832611 0.051880
0.746216 0.831177 0.019470
0.789276 0.829559 0.000000
0.833771 0.828491 0.000000
0.884003 0.832916 0.057251
0.934723 0.837677 0.118805
0.985809 0.842834 0.161987
1.000000 0.845886 0.182983
0.164459 0.861298 0.164459
0.164459 0.861298 0.164459
0.164459 0.861298 0.164459
0.164459 0.861298 0.164459
0.164459 0.861298 0.164459
0.164459 0.861298 0.164459
0.164459 0.861298 0.164459
0.164459 0.861298 0.164459
0.164459 0.861298 0.164459
0.164459 0.861298 0.164459
0.164459 0.861298 0.164459
0.218536 0.860962 0.161804
0.255676 0.860657 0.159424
0.290558 0.860291 0.156799
0.325012 0.859924 0.153717
0.359802 0.859467 0.150146
0.395081 0.858948 0.145935
0.431061 0.858368 0.141022
0.467773 0.857697 0.135162
0.505249 0.856964 0.128265
0.543549 0.856110 0.120056
0.582672 0.855194 0.110260
0.622620 0.854126 0.098206
0.663330 0.852966 0.083099
0.704742 0.851685 0.063202
0.746948 0.850250 0.033875
0.789948 0.848694 0.000000
0.833710 0.846985 0.000000
0.882294 0.849579 0.017365
0.933136 0.854218 0.099274
0.984344 0.859222 0.148163
1.000000 0.862213 0.170959
0.168823 0.879547 0.168823
0.168823 0.879547 0.168823
0.168823 0.879547 0.168823
0.168823 0.879547 0.168823
0.168823 0.879547 0.168823
0.168823 0.879547 0.168823
0.168823 0.879547 0.168823
0.168823 0.879547 0.168823
0.168823 0.879547 0.168823
0.168823 0.879547 0.168823
0.168823 0.879547 0.168823
0.221741 0.879211 0.166229
0.258392 0.878906 0.163971
0.292877 0.878571 0.161377
0.327057 0.878174 0.158417
0.361603 0.877747 0.154938
0.396698 0.877258 0.150848
0.432526 0.876678 0.146088
0.469116 0.876038 0.140472
0.506439 0.875305 0.133881
0.544647 0.874481 0.126007
0.583679 0.873596 0.116638
0.623535 0.872559 0.105286
0.664154 0.871429 0.091248
0.705536 0.870178 0.073181
0.747681 0.868805 0.047821
0.790619 0.867279 0.011414
0.834320 0.865631 0.000000
0.880585 0.865784 0.000000
0.931549 0.870331 0.075439
0.982880 0.875214 0.132904
1.000000 0.878143 0.157990
0.173035 0.897278 0.173035
0.173035 0.897278 0.173035
0.173035 0.897278 0.173035
0.173035 0.897278 0.173035
0.173035 0.897278 0.173035
0.173035 0.897278 0.173035
0.173035 0.897278 0.173035
0.173035 0.897278 0.173035
0.173035 0.897278 0.173035
0.173035 0.897278 0.173035
0.173035 0.897278 0.173035
0.224915 0.896912 0.170532
0.261047 0.896637 0.168304
0.295197 0.896301 0.165802
0.329102 0.895935 0.162964
0.363403 0.895508 0.159546
0.398285 0.895020 0.155640
0.433960 0.894470 0.151001
0.470398 0.893860 0.145599
0.507629 0.893127 0.139191
0.545715 0.892334 0.131683
0.584656 0.891449 0.122681
0.624420 0.890472 0.112000
0.664978 0.889343 0.098755
0.706299 0.888153 0.082062
0.748383 0.886810 0.059631
0.791290 0.885315 0.025787
0.834961 0.883698 0.000000
0.879242 0.881927 0.000000
0.929962 0.886017 0.043213
0.981415 0.890778 0.115692
1.000000 0.893646 0.143799
0.177185 0.914490 0.177185
0.177185 0.914490 0.177185
0.177185 0.914490 0.177185
0.177185 0.914490 0.177185
0.177185 0.914490 0.177185
0.177185 0.914490 0.177185
0.177185 0.914490 0.177185
0.177185 0.914490 0.177185
0.177185 0.914490 0.177185
0.177185 0.914490 0.177185
0.177185 0.914490 0.177185
0.228027 0.914154 0.174713
0.263702 0.913849 0.172546
0.297485 0.913544 0.170135
0.331116 0.913177 0.167328
0.365173 0.912781 0.164063
0.399872 0.912292 0.160187
0.435394 0.911743 0.155731
0.471710 0.911133 0.150482
0.508789 0.910461 0.144348
0.546814 0.909668 0.137115
0.585663 0.908813 0.128510
0.625336 0.907837 0.118256
0.665833 0.906769 0.105804
0.707092 0.905579 0.090240
0.749115 0.904266 0.069946
0.791931 0.902832 0.040222
0.835571 0.901276 0.000000
0.879822 0.899536 0.000000
0.928406 0.901306 0.001129
0.979919 0.905975 0.095673
1.000000 0.908783 0.128082
0.181183 0.931274 0.181183
0.181183 0.931274 0.181183
0.181183 0.931274 0.181183
0.181183 0.931274 0.181183
0.181183 0.931274 0.181183
0.181183 0.931274 0.181183
0.181183 0.931274 0.181183
0.181183 0.931274 0.181183
0.181183 0.931274 0.181183
0.181183 0.931274 0.181183
0.181183 0.931274 0.181183
0.231110 0.930939 0.178802
0.266296 0.930664 0.176666
0.299744 0.930359 0.174316
0.333099 0.929993 0.171570
0.366943 0.929596 0.168396
0.401459 0.929138 0.164673
0.436829 0.928589 0.160309
0.472992 0.928009 0.155243
0.509979 0.927338 0.149292
0.547882 0.926575 0.142303
0.586639 0.925720 0.134064
0.626221 0.924774 0.124207
0.666656 0.923737 0.112427
0.707855 0.922577 0.097809
0.749817 0.921295 0.079071
0.792603 0.919891 0.053070
0.836182 0.918365 0.014191
0.880402 0.916687 0.000000
0.926819 0.916260 0.000000
0.978455 0.920837 0.071075
1.000000 0.923553 0.110260
0.185120 0.947632 0.185120
0.185120 0.947632 0.185120
0.185120 0.947632 0.185120
0.185120 0.947632 0.185120
0.185120 0.947632 0.185120
0.185120 0.947632 0.185120
0.185120 0.947632 0.185120
0.185120 0.947632 0.185120
0.185120 0.947632 0.185120
0.185120 0.947632 0.185120
0.185120 0.947632 0.185120
0.234100 0.947327 0.182770
0.268860 0.947052 0.180695
0.301971 0.946747 0.178406
0.335083 0.946411 0.175720
0.368713 0.946014 0.172638
0.403046 0.945557 0.169006
0.438232 0.945038 0.164764
0.474274 0.944458 0.159821
0.511139 0.943817 0.154053
0.548950 0.943054 0.147308
0.587616 0.942230 0.139343
0.627136 0.941315 0.129974
0.667480 0.940277 0.118683
0.708618 0.939148 0.104858
0.750519 0.937927 0.087494
0.793274 0.936554 0.064148
0.836792 0.935028 0.028442
0.880981 0.933411 0.000000
0.925964 0.931610 0.000000
0.976959 0.935333 0.036804
1.000000 0.938019 0.089203
0.188934 0.963623 0.188934
0.188934 0.963623 0.188934
0.188934 0.963623 0.188934
0.188934 0.963623 0.188934
0.188934 0.963623 0.188934
0.188934 0.963623 0.188934
0.188934 0.963623 0.188934
0.188934 0.963623 0.188934
0.188934 0.963623 0.188934
0.188934 0.963623 0.188934
0.188934 0.963623 0.188934
0.237091 0.963318 0.186646
0.271362 0.963043 0.184631
0.304169 0.962738 0.182373
0.337036 0.962402 0.179779
0.370453 0.962006 0.176727
0.404602 0.961578 0.173218
0.439636 0.961090 0.169098
0.475555 0.960510 0.164307
0.512299 0.959869 0.158691
0.549988 0.959137 0.152130
0.588593 0.958344 0.144501
0.628021 0.957428 0.135406
0.668304 0.956421 0.124603
0.709381 0.955322 0.111542
0.751251 0.954102 0.095245
0.793945 0.952759 0.073914
0.837433 0.951294 0.042725
0.881561 0.949707 0.000000
0.926514 0.947937 0.000000
0.975494 0.949554 0.000000
1.000000 0.952179 0.062683
0.192688 0.979218 0.192688
0.192688 0.979218 0.192688
0.192688 0.979218 0.192688
0.192688 0.979218 0.192688
0.192688 0.979218 0.192688
0.192688 0.979218 0.192688
0.192688 0.979218 0.192688
0.192688 0.979218 0.192688
0.192688 0.979218 0.192688
0.192688 0.979218 0.192688
0.192688 0.979218 0.192688
0.239960 0.978912 0.190430
0.273895 0.978638 0.188477
0.306396 0.978363 0.186279
0.338959 0.978027 0.183716
0.372162 0.977661 0.180756
0.406158 0.977234 0.177307
0.441040 0.976746 0.173279
