projects/Assignment 1 (week 3)/res/luts/Midtone.CUBE
#Created by: Adobe Photoshop Export Color Lookup Plugin
TITLE "LUTSTIME.psd"
#LUT size
LUT_3D_SIZE 8
#data domain
#LUT data points
DOMAIN_MIN 0.000000 0.000000 0.000000
DOMAIN_MAX 0.903226 0.903226 0.903226
0.000000 0.000000 0.000000
0.245209 0.146759 0.110962
0.503845 0.235077 0.137360
0.638153 0.325043 0.211212
0.770935 0.402313 0.268311
0.887390 0.468292 0.315948
0.977081 0.522705 0.357513
1.000000 0.580566 0.428101
0.000000 0.000000 0.000000
0.245209 0.146759 0.110962
0.503845 0.235077 0.137360
0.638153 0.325043 0.211212
0.770935 0.402313 0.268311
0.887390 0.468292 0.315948
0.977081 0.522705 0.357513
1.000000 0.580566 0.428101
0.026428 0.432526 0.134705
0.128784 0.431915 0.009308
0.448730 0.500427 0.038055
0.634247 0.560333 0.162598
0.767517 0.586945 0.236542
0.884949 0.616486 0.293091
0.975708 0.643219 0.340210
1.000000 0.669189 0.414185
0.080780 0.574982 0.212524
0.113434 0.574860 0.068695
0.340546 0.571655 0.000000
0.535248 0.631531 0.044586
0.763336 0.724915 0.178162
0.881744 0.740692 0.254486
0.973907 0.759338 0.312134
1.000000 0.768433 0.392395
0.126312 0.709564 0.281799
0.118256 0.709351 0.133972
0.319122 0.708923 0.074310
0.430603 0.695496 0.000000
0.623566 0.761719 0.034363
0.869476 0.878448 0.185425
0.971893 0.895081 0.266571
1.000000 0.884033 0.358948
0.165955 0.840302 0.345734
0.160156 0.840149 0.226563
0.294922 0.839661 0.130188
0.416046 0.839722 0.079926
0.520569 0.818512 0.000000
0.687012 0.880035 0.002563
0.898773 0.970612 0.185883
0.994080 1.000000 0.306549
0.202576 0.950653 0.402008
0.198090 0.950592 0.304291
0.276184 0.950409 0.175751
0.398834 0.950500 0.141754
0.518768 0.951416 0.086517
0.605347 0.927277 0.000000
0.696625 0.922516 0.000000
0.872223 1.000000 0.214111
0.264954 1.000000 0.460907
0.261322 1.000000 0.385040
0.292755 1.000000 0.244232
0.405945 1.000000 0.219360
0.518372 1.000000 0.183136
0.614990 1.000000 0.126770
0.676331 1.000000 0.010620
0.723846 0.979156 0.000000
0.000000 0.000000 0.000000
0.245209 0.146759 0.110962
0.503845 0.235077 0.137360
0.638153 0.325043 0.211212
0.770935 0.402313 0.268311
0.887390 0.468292 0.315948
0.977081 0.522705 0.357513
1.000000 0.580566 0.428101
0.000000 0.000000 0.000000
0.245209 0.146759 0.110962
0.503845 0.235077 0.137360
0.638153 0.325043 0.211212
0.770935 0.402313 0.268311
0.887390 0.468292 0.315948
0.977081 0.522705 0.357513
1.000000 0.580566 0.428101
0.026428 0.432526 0.134705
0.128784 0.431915 0.009308
0.448730 0.500427 0.038055
0.634247 0.560333 0.162598
0.767517 0.586945 0.236542
0.884949 0.616486 0.293091
0.975708 0.643219 0.340210
1.000000 0.669189 0.414185
0.080780 0.574982 0.212524
0.113434 0.574860 0.068695
0.340546 0.571655 0.000000
0.535248 0.631531 0.044586
0.763336 0.724915 0.178162
0.881744 0.740692 0.254486
0.973907 0.759338 0.312134
1.000000 0.768433 0.392395
0.126312 0.709564 0.281799
0.118256 0.709351 0.133972
0.319122 0.708923 0.074310
0.430603 0.695496 0.000000
0.623566 0.761719 0.034363
0.869476 0.878448 0.185425
0.971893 0.895081 0.266571
1.000000 0.884033 0.358948
0.165955 0.840302 0.345734
0.160156 0.840149 0.226563
0.294922 0.839661 0.130188
0.416046 0.839722 0.079926
0.520569 0.818512 0.000000
0.687012 0.880035 0.002563
0.898773 0.970612 0.185883
0.994080 1.000000 0.306549
0.202576 0.950653 0.402008
0.198090 0.950592 0.304291
0.276184 0.950409 0.175751
0.398834 0.950500 0.141754
0.518768 0.951416 0.086517
0.605347 0.927277 0.000000
0.696625 0.922516 0.000000
0.872223 1.000000 0.214111
0.264954 1.000000 0.460907
0.261322 1.000000 0.385040
0.292755 1.000000 0.244232
0.405945 1.000000 0.219360
0.518372 1.000000 0.183136
0.614990 1.000000 0.126770
0.676331 1.000000 0.010620
0.723846 0.979156 0.000000
0.163788 0.123901 0.273560
0.270935 0.116333 0.248657
0.503845 0.137360 0.197388
0.638153 0.212463 0.211212
0.770935 0.317627 0.268311
0.887390 0.402588 0.315948
0.977081 0.470642 0.357513
1.000000 0.543152 0.428101
0.163788 0.123901 0.273560
0.270935 0.116333 0.248657
0.503845 0.137360 0.197388
0.638153 0.212463 0.211212
0.770935 0.317627 0.268311
0.887390 0.402588 0.315948
0.977081 0.470642 0.357513
1.000000 0.543152 0.428101
0.026428 0.432526 0.377502
0.254028 0.384888 0.303375
0.458344 0.445313 0.289093
0.604218 0.505890 0.332275
0.745728 0.554718 0.365173
0.870636 0.596680 0.394135
0.967133 0.631439 0.421265
1.000000 0.667572 0.475311
0.080780 0.574982 0.405457
0.284210 0.544159 0.368225
0.404999 0.537384 0.293701
0.571289 0.597168 0.304321
0.739838 0.666718 0.341644
0.866455 0.705048 0.374542
0.964661 0.737854 0.404999
1.000000 0.761230 0.460846
0.126312 0.709564 0.438446
0.301453 0.685059 0.417664
0.383484 0.679016 0.311737
0.499969 0.676147 0.297363
0.670135 0.732269 0.304596
0.860931 0.830811 0.344574
0.961365 0.860535 0.380554
1.000000 0.869385 0.439728
0.165955 0.840302 0.474823
0.315826 0.822632 0.463684
0.354584 0.818176 0.325867
0.473633 0.816101 0.312622
0.595154 0.813599 0.294891
0.745453 0.854401 0.297974
0.927368 0.957458 0.344025
1.000000 0.981812 0.409210
0.202576 0.950653 0.509399
0.330902 0.938782 0.504547
0.340302 0.935974 0.350037
0.450714 0.934753 0.328278
0.572723 0.933289 0.312225
0.683929 0.931671 0.291443
0.797577 0.953278 0.286865
0.911407 1.000000 0.364410
0.264954 1.000000 0.545074
0.367340 1.000000 0.545746
0.374420 1.000000 0.410309
0.451508 1.000000 0.363190
0.566071 1.000000 0.348480
0.670227 1.000000 0.329681
0.754730 1.000000 0.305756
0.817810 1.000000 0.294037
0.254211 0.167053 0.493927
0.374847 0.160461 0.493225
0.503845 0.137360 0.392731
0.638153 0.211212 0.378418
0.770935 0.268311 0.362793
0.887390 0.315948 0.352356
0.977081 0.363251 0.357513
1.000000 0.456299 0.428101
0.254211 0.167053 0.493927
0.374847 0.160461 0.493225
0.503845 0.137360 0.392731
0.638153 0.211212 0.378418
0.770935 0.268311 0.362793
0.887390 0.315948 0.352356
0.977081 0.363251 0.357513
1.000000 0.456299 0.428101
0.093292 0.327789 0.488373
0.276062 0.357208 0.450470
0.441406 0.401947 0.422333
0.573975 0.447754 0.443726
0.718048 0.508514 0.471710
0.851013 0.557434 0.491638
0.955200 0.599213 0.511749
1.000000 0.645599 0.555115
0.080780 0.535522 0.574982
0.284210 0.544159 0.533051
0.457672 0.508698 0.463837
0.560028 0.547668 0.471313
0.701111 0.613342 0.500153
0.837189 0.672119 0.524017
0.946198 0.720337 0.547089
1.000000 0.759888 0.587433
0.126312 0.709564 0.633240
0.301453 0.685059 0.575592
0.485535 0.639008 0.518951
0.538177 0.636292 0.482025
0.681061 0.693695 0.489960
0.831299 0.771423 0.512756
0.942413 0.822235 0.535248
1.000000 0.854706 0.573669
0.165955 0.840302 0.654602
0.315826 0.822632 0.612152
0.503387 0.784851 0.570038
0.533295 0.782562 0.499512
0.635468 0.779724 0.494720
0.771759 0.823792 0.498444
0.937531 0.927429 0.520111
1.000000 0.953613 0.556091
0.202576 0.950653 0.673950
0.330902 0.938782 0.642426
0.517151 0.913696 0.613861
0.522888 0.912170 0.512939
0.629181 0.910187 0.507721
0.729584 0.907837 0.501556
0.837219 0.931458 0.501556
0.953156 1.000000 0.534332
0.264954 1.000000 0.684174
0.367340 1.000000 0.665741
0.534576 1.000000 0.649445
0.529358 1.000000 0.536255
0.628052 1.000000 0.523010
0.726471 1.000000 0.515411
0.809937 1.000000 0.506683
0.874847 1.000000 0.508057
0.354004 0.252533 0.633087
0.433350 0.248779 0.632538
0.614258 0.230469 0.630066
0.638153 0.211212 0.513489
0.770935 0.268311 0.494598
0.887390 0.315948 0.481262
0.977081 0.357513 0.477478
1.000000 0.428101 0.509216
0.354004 0.252533 0.633087
0.433350 0.248779 0.632538
0.614258 0.230469 0.630066
0.638153 0.211212 0.513489
0.770935 0.268311 0.494598
0.887390 0.315948 0.481262
0.977081 0.357513 0.477478
1.000000 0.428101 0.509216
0.215637 0.336243 0.628357
0.333191 0.370361 0.602570
0.515472 0.445190 0.565491
0.573975 0.443726 0.531647
0.718048 0.471710 0.536774
0.851013 0.491638 0.533051
0.955200 0.511749 0.533173
1.000000 0.555115 0.563812
0.143097 0.446411 0.622772
0.304688 0.474945 0.595367
0.480865 0.504700 0.551178
0.565948 0.536743 0.552673
0.686188 0.572662 0.569092
0.820404 0.631470 0.604553
0.933807 0.683624 0.636597
1.000000 0.730438 0.674957
0.126312 0.646759 0.709564
0.301453 0.668488 0.685059
0.495087 0.636658 0.612091
0.583740 0.631531 0.590942
0.678528 0.668610 0.596283
0.808746 0.737152 0.634949
0.924377 0.797485 0.671112
1.000000 0.843903 0.707123
0.165955 0.840302 0.791412
0.315826 0.822632 0.739746
0.515015 0.782257 0.676025
0.617950 0.761047 0.649750
0.665619 0.758667 0.614777
0.783905 0.802277 0.625336
0.919739 0.883820 0.660767
1.000000 0.929810 0.694153
0.202576 0.950653 0.808563
0.330902 0.938782 0.770325
0.530518 0.911804 0.728241
0.651154 0.893036 0.708679
0.679565 0.891235 0.647614
0.763214 0.889130 0.643402
0.861145 0.914063 0.648041
0.985046 0.997742 0.680359
0.264954 1.000000 0.807617
0.367340 1.000000 0.786224
0.547913 1.000000 0.766663
0.679474 0.991058 0.755157
0.692871 0.990143 0.675659
0.776917 0.989044 0.671143
0.849426 0.987793 0.665955
0.911957 0.994263 0.664398
0.447144 0.323822 0.786346
0.501282 0.321411 0.785950
0.644653 0.310059 0.783966
0.773834 0.294312 0.781555
0.778595 0.272797 0.651154
0.887390 0.315948 0.627350
0.977081 0.357513 0.619354
1.000000 0.428101 0.632233
0.447144 0.323822 0.786346
0.501282 0.321411 0.785950
0.644653 0.310059 0.783966
0.773834 0.294312 0.781555
0.778595 0.272797 0.651154
0.887390 0.315948 0.627350
0.977081 0.357513 0.619354
1.000000 0.428101 0.632233
0.301239 0.337433 0.782562
0.397583 0.382751 0.765167
0.585846 0.482758 0.732635
0.684052 0.478638 0.730011
0.726685 0.473389 0.665466
0.851013 0.491638 0.658417
0.955200 0.511749 0.658661
1.000000 0.555115 0.676544
0.263184 0.443237 0.777466
0.361420 0.467987 0.759338
0.520905 0.519684 0.712555
0.641510 0.574829 0.697113
0.694427 0.571533 0.666718
0.820404 0.604553 0.680176
0.933807 0.636597 0.695526
1.000000 0.674957 0.720520
0.195374 0.555908 0.771576
0.328217 0.580231 0.751770
0.509888 0.607056 0.705444
0.609283 0.631866 0.688873
0.698029 0.666565 0.693665
0.802826 0.701263 0.708069
0.915649 0.754303 0.744141
0.996094 0.804382 0.783508
0.165955 0.734924 0.840302
0.315826 0.759033 0.822632
0.515015 0.771027 0.782257
0.626129 0.760193 0.747437
0.720795 0.763672 0.736084
0.799561 0.793396 0.737457
0.907562 0.855530 0.780945
0.990082 0.908173 0.823059
0.202576 0.940063 0.950653
0.330902 0.938782 0.916962
0.530518 0.911804 0.851105
0.660645 0.891846 0.815125
0.761719 0.880341 0.797516
0.798767 0.878235 0.764404
0.883087 0.902588 0.772949
0.987366 0.972290 0.814819
0.264954 1.000000 0.947784
0.367340 1.000000 0.923401
0.547913 1.000000 0.890167
0.690247 0.990173 0.866852
0.803741 0.979919 0.855011
0.826752 0.978455 0.806763
0.886139 0.977203 0.803558
0.941315 0.984070 0.804993
0.529724 0.385559 0.926300
0.567383 0.383942 0.926056
0.684113 0.376434 0.924866
0.806519 0.366241 0.923340
0.921478 0.352814 0.912445
0.919403 0.335724 0.794861
0.977081 0.357513 0.753967
1.000000 0.428101 0.748383
0.529724 0.385559 0.926300
0.567383 0.383942 0.926056
0.684113 0.376434 0.924866
0.806519 0.366241 0.923340
0.921478 0.352814 0.912445
0.919403 0.335724 0.794861
0.977081 0.357513 0.753967
1.000000 0.428101 0.748383
0.399750 0.370697 0.924011
0.490021 0.428436 0.914459
0.655426 0.515869 0.894714
0.757721 0.511536 0.892914
0.863312 0.506195 0.890717
0.888123 0.499939 0.813629
0.955200 0.511749 0.781647
1.000000 0.555115 0.784943
0.347046 0.443420 0.920746
0.412750 0.465149 0.910797
0.590332 0.559235 0.879944
0.726379 0.624603 0.864441
0.813812 0.620850 0.862396
0.860016 0.616425 0.821014
0.933807 0.636597 0.803619
1.000000 0.674957 0.820007
0.309753 0.556183 0.916687
0.389221 0.575684 0.905975
0.548340 0.621033 0.874847
0.665131 0.663666 0.851654
0.781799 0.718903 0.842804
0.840729 0.715881 0.829468
0.915649 0.744141 0.825043
0.996094 0.783508 0.851288
0.248566 0.663727 0.912292
0.354187 0.684723 0.900085
0.534454 0.717468 0.868378
0.654236 0.742065 0.845825
0.748749 0.769531 0.836456
0.832611 0.802277 0.840485
0.905823 0.829559 0.847687
0.986206 0.872864 0.879578
0.202576 0.793762 0.950653
0.330902 0.818573 0.938782
0.530518 0.848419 0.911804
0.660645 0.863800 0.891846
0.761719 0.877228 0.880341
0.841034 0.881653 0.868927
0.904907 0.902100 0.871002
0.980835 0.950226 0.911041
0.264954 0.917999 1.000000
0.367340 0.944550 1.000000
0.547913 0.988312 1.000000
0.690247 0.990173 0.971649
0.803741 0.979919 0.941498
0.884399 0.973236 0.924805
0.916840 0.971252 0.902618
0.962677 0.977875 0.905518
0.605896 0.462616 1.000000
0.630096 0.461395 1.000000
0.725159 0.455872 1.000000
0.831696 0.448486 1.000000
0.939331 0.439087 1.000000
1.000000 0.427277 0.962372
1.000000 0.412872 0.881592
1.000000 0.428101 0.834259
0.605896 0.462616 1.000000
0.630096 0.461395 1.000000
0.725159 0.455872 1.000000
0.831696 0.448486 1.000000
0.939331 0.439087 1.000000
1.000000 0.427277 0.962372
1.000000 0.412872 0.881592
1.000000 0.428101 0.834259
0.513000 0.451691 1.000000
0.568909 0.488922 1.000000
0.717255 0.563965 1.000000
0.814758 0.558868 1.000000
0.914490 0.552612 1.000000
1.000000 0.545166 0.993011
1.000000 0.536652 0.915375
1.000000 0.555115 0.867920
0.434998 0.478729 1.000000
0.476196 0.495636 1.000000
0.654755 0.603790 1.000000
0.798431 0.674805 0.992859
0.886353 0.670837 0.991943
0.968872 0.666168 0.990814
0.989563 0.660767 0.939789
1.000000 0.674957 0.899689
0.410187 0.577667 1.000000
0.457733 0.593445 1.000000
0.591125 0.642456 0.999268
0.739960 0.719025 0.985229
0.863586 0.780457 0.977753
0.933044 0.777283 0.976654
0.975342 0.773651 0.956329
0.996094 0.783508 0.925812
0.373779 0.674652 1.000000
0.431641 0.691132 1.000000
0.576691 0.734528 0.996521
0.709076 0.776489 0.982422
0.812225 0.814240 0.971222
0.910095 0.862976 0.965698
0.961517 0.860626 0.964447
0.986206 0.872864 0.943634
0.318512 0.755920 1.000000
0.394562 0.776062 1.000000
0.559021 0.817017 0.993011
0.696747 0.848846 0.978882
0.804047 0.875916 0.967773
0.881104 0.898560 0.961060
0.943054 0.923218 0.959290
0.979828 0.934509 0.956970
0.264954 0.815338 1.000000
0.367340 0.842621 1.000000
0.547913 0.890839 1.000000
0.690247 0.920898 0.990173
0.803741 0.942596 0.979919
0.884399 0.957977 0.973236
0.938995 0.969482 0.970764
0.977692 0.976990 0.968231
