projects/Assignment 1 (week 3)/res/luts/Midtone.CUBE
#Created by: Adobe Photoshop Export Color Lookup Plugin
TITLE "LUTSTIME.psd"
#LUT size
LUT_3D_SIZE 5
#data domain
#LUT data points
DOMAIN_MIN 0.000000 0.000000 0.000000
DOMAIN_MAX 0.903226 0.903226 0.903226
0.000000 0.000000 0.000000
0.464264 0.207947 0.114777
0.705719 0.365082 0.241272
0.912659 0.483002 0.326813
1.000000 0.580566 0.428101
0.045654 0.377960 0.134247
0.430389 0.460419 0.034668
0.702972 0.530243 0.214691
0.911102 0.592377 0.311981
1.000000 0.647827 0.418335
0.104462 0.641510 0.247650
0.294159 0.641144 0.056274
0.582306 0.697388 0.041779
0.906006 0.814545 0.244049
1.000000 0.824768 0.377472
0.175354 0.870392 0.360657
0.254364 0.869904 0.150360
0.470947 0.870300 0.062500
0.693939 0.897491 0.000000
0.963531 1.000000 0.288727
0.264954 1.000000 0.460907
0.263580 1.000000 0.249084
0.463165 1.000000 0.203033
0.634918 1.000000 0.106689
0.723846 0.979156 0.000000
0.087952 0.069824 0.137848
0.464264 0.135590 0.114777
0.705719 0.330383 0.241272
0.912659 0.462128 0.326813
1.000000 0.568268 0.428101
0.045654 0.377960 0.240051
0.439240 0.433289 0.174744
0.693939 0.515747 0.272278
0.906860 0.587067 0.346130
1.000000 0.646942 0.439270
0.104462 0.641510 0.319763
0.326874 0.627228 0.184387
0.606812 0.683899 0.177856
0.900940 0.798798 0.292908
1.000000 0.820404 0.403900
0.175354 0.870392 0.406799
0.278931 0.862549 0.228638
0.498413 0.860504 0.181732
0.733337 0.894653 0.153870
0.974030 1.000000 0.330933
0.264954 1.000000 0.490540
0.299164 1.000000 0.316956
0.481476 1.000000 0.266113
0.661896 1.000000 0.208160
0.774567 1.000000 0.131348
0.305054 0.212067 0.560852
0.558472 0.189850 0.549927
0.705719 0.241272 0.433472
0.912659 0.326813 0.411926
1.000000 0.428101 0.451843
0.178101 0.294220 0.557404
0.468079 0.391479 0.504028
0.657898 0.426910 0.475922
0.887848 0.469788 0.465546
1.000000 0.553436 0.525024
0.104462 0.591827 0.641510
0.455170 0.573273 0.544220
0.617859 0.606262 0.531189
0.852997 0.721436 0.588074
1.000000 0.803833 0.647583
0.175354 0.870392 0.724976
0.485718 0.824829 0.641785
0.604736 0.803925 0.564728
0.797974 0.841858 0.567474
1.000000 0.964233 0.621552
0.264954 1.000000 0.742676
0.511566 1.000000 0.710602
0.609924 0.996857 0.601318
0.772461 0.994965 0.591858
0.895020 1.000000 0.584167
0.468964 0.339996 0.823792
0.624237 0.330597 0.822113
0.818085 0.304871 0.789154
0.912659 0.326813 0.660645
1.000000 0.428101 0.662933
0.341583 0.325867 0.821289
0.586853 0.463348 0.786621
0.773132 0.453949 0.782104
0.887848 0.465546 0.685242
1.000000 0.525024 0.694550
0.261871 0.498901 0.812897
0.495575 0.555695 0.761810
0.689575 0.631439 0.729675
0.840302 0.664673 0.723236
1.000000 0.730042 0.765106
0.175354 0.752289 0.870392
0.485718 0.792694 0.824829
0.684113 0.789856 0.776367
0.828094 0.822845 0.772705
0.987366 0.920593 0.848175
0.264954 1.000000 0.982941
0.511566 1.000000 0.928223
0.751312 0.984650 0.883545
0.853149 0.976105 0.834229
0.947357 0.982056 0.834106
0.605896 0.462616 1.000000
0.700104 0.457428 1.000000
0.886108 0.444031 1.000000
1.000000 0.423950 0.940216
1.000000 0.428101 0.834259
0.538727 0.454895 1.000000
0.695740 0.537720 1.000000
0.870148 0.528107 1.000000
1.000000 0.514648 0.964325
1.000000 0.525024 0.860046
0.423767 0.527435 1.000000
0.566437 0.583893 1.000000
0.833466 0.730133 0.985077
0.967194 0.723480 0.983185
1.000000 0.730042 0.914246
0.362183 0.696960 1.000000
0.535736 0.746338 0.999512
0.762177 0.813385 0.975555
0.919342 0.879913 0.963440
0.984222 0.890686 0.947327
0.264954 0.815338 1.000000
0.511566 0.881104 1.000000
0.751312 0.932648 0.984650
0.900146 0.961090 0.972198
0.977692 0.976990 0.968231
