projects/Assignment 1 (week 3)/res/luts/Midtone.CUBE
#Created by: Adobe Photoshop Export Color Lookup Plugin
TITLE "LUTSTIME.psd"
#LUT size
LUT_3D_SIZE 32
#data domain
DOMAIN_MIN 0.0 0.0 0.0
DOMAIN_MAX 1.0 1.0 1.0
#LUT data points
0.000000 0.000000 0.000000
0.000000 0.000000 0.000000
0.000000 0.000000 0.000000
0.000000 0.000000 0.000000
0.245209 0.146759 0.110962
0.346924 0.171143 0.107239
0.414978 0.177612 0.091339
0.464264 0.207947 0.114777
0.503845 0.235077 0.137360
0.537170 0.259247 0.158203
0.570343 0.282013 0.177185
0.604156 0.303894 0.194763
0.638153 0.325043 0.211212
0.672119 0.345428 0.226654
0.705719 0.365082 0.241272
0.738739 0.384094 0.255157
0.770935 0.402313 0.268311
0.802094 0.419891 0.280975
0.831970 0.436737 0.293060
0.860443 0.452850 0.304688
0.887390 0.468292 0.315948
0.912659 0.483002 0.326813
0.936096 0.496979 0.337341
0.957642 0.510223 0.347595
0.977081 0.522705 0.357513
0.994446 0.534424 0.367188
1.000000 0.549927 0.386322
1.000000 0.566193 0.408478
1.000000 0.580566 0.428101
1.000000 0.590179 0.441193
1.000000 0.596466 0.449768
1.000000 0.597290 0.450897
0.000000 0.000000 0.000000
0.000000 0.000000 0.000000
0.000000 0.000000 0.000000
0.000000 0.000000 0.000000
0.245209 0.146759 0.110962
0.346924 0.171143 0.107239
0.414978 0.177612 0.091339
0.464264 0.207947 0.114777
0.503845 0.235077 0.137360
0.537170 0.259247 0.158203
0.570343 0.282013 0.177185
0.604156 0.303894 0.194763
0.638153 0.325043 0.211212
0.672119 0.345428 0.226654
0.705719 0.365082 0.241272
0.738739 0.384094 0.255157
0.770935 0.402313 0.268311
0.802094 0.419891 0.280975
0.831970 0.436737 0.293060
0.860443 0.452850 0.304688
0.887390 0.468292 0.315948
0.912659 0.483002 0.326813
0.936096 0.496979 0.337341
0.957642 0.510223 0.347595
0.977081 0.522705 0.357513
0.994446 0.534424 0.367188
1.000000 0.549927 0.386322
1.000000 0.566193 0.408478
1.000000 0.580566 0.428101
1.000000 0.590179 0.441193
1.000000 0.596466 0.449768
1.000000 0.597290 0.450897
0.000000 0.000000 0.000000
0.000000 0.000000 0.000000
0.000000 0.000000 0.000000
0.000000 0.000000 0.000000
0.245209 0.146759 0.110962
0.346924 0.171143 0.107239
0.414978 0.177612 0.091339
0.464264 0.207947 0.114777
0.503845 0.235077 0.137360
0.537170 0.259247 0.158203
0.570343 0.282013 0.177185
0.604156 0.303894 0.194763
0.638153 0.325043 0.211212
0.672119 0.345428 0.226654
0.705719 0.365082 0.241272
0.738739 0.384094 0.255157
0.770935 0.402313 0.268311
0.802094 0.419891 0.280975
0.831970 0.436737 0.293060
0.860443 0.452850 0.304688
0.887390 0.468292 0.315948
0.912659 0.483002 0.326813
0.936096 0.496979 0.337341
0.957642 0.510223 0.347595
0.977081 0.522705 0.357513
0.994446 0.534424 0.367188
1.000000 0.549927 0.386322
1.000000 0.566193 0.408478
1.000000 0.580566 0.428101
1.000000 0.590179 0.441193
1.000000 0.596466 0.449768
1.000000 0.597290 0.450897
0.000000 0.000000 0.000000
0.000000 0.000000 0.000000
0.000000 0.000000 0.000000
0.000000 0.000000 0.000000
0.245209 0.146759 0.110962
0.346924 0.171143 0.107239
0.414978 0.177612 0.091339
0.464264 0.207947 0.114777
0.503845 0.235077 0.137360
0.537170 0.259247 0.158203
0.570343 0.282013 0.177185
0.604156 0.303894 0.194763
0.638153 0.325043 0.211212
0.672119 0.345428 0.226654
0.705719 0.365082 0.241272
0.738739 0.384094 0.255157
0.770935 0.402313 0.268311
0.802094 0.419891 0.280975
0.831970 0.436737 0.293060
0.860443 0.452850 0.304688
0.887390 0.468292 0.315948
0.912659 0.483002 0.326813
0.936096 0.496979 0.337341
0.957642 0.510223 0.347595
0.977081 0.522705 0.357513
0.994446 0.534424 0.367188
1.000000 0.549927 0.386322
1.000000 0.566193 0.408478
1.000000 0.580566 0.428101
1.000000 0.590179 0.441193
1.000000 0.596466 0.449768
1.000000 0.597290 0.450897
0.000000 0.000000 0.000000
0.000000 0.000000 0.000000
0.000000 0.000000 0.000000
0.000000 0.000000 0.000000
0.245209 0.146759 0.110962
0.346924 0.171143 0.107239
0.414978 0.177612 0.091339
0.464264 0.207947 0.114777
0.503845 0.235077 0.137360
0.537170 0.259247 0.158203
0.570343 0.282013 0.177185
0.604156 0.303894 0.194763
0.638153 0.325043 0.211212
0.672119 0.345428 0.226654
0.705719 0.365082 0.241272
0.738739 0.384094 0.255157
0.770935 0.402313 0.268311
0.802094 0.419891 0.280975
0.831970 0.436737 0.293060
0.860443 0.452850 0.304688
0.887390 0.468292 0.315948
0.912659 0.483002 0.326813
0.936096 0.496979 0.337341
0.957642 0.510223 0.347595
0.977081 0.522705 0.357513
0.994446 0.534424 0.367188
1.000000 0.549927 0.386322
1.000000 0.566193 0.408478
1.000000 0.580566 0.428101
1.000000 0.590179 0.441193
1.000000 0.596466 0.449768
1.000000 0.597290 0.450897
0.088989 0.196045 0.117523
0.088989 0.196045 0.117523
0.088989 0.196045 0.117523
0.088989 0.196045 0.117523
0.235474 0.240112 0.097137
0.343811 0.286133 0.089996
0.413208 0.307495 0.070374
0.463013 0.322235 0.098053
0.502960 0.336365 0.123474
0.536377 0.349854 0.146210
0.569580 0.363800 0.166840
0.603333 0.378387 0.185638
0.637360 0.393097 0.203094
0.671356 0.407898 0.219269
0.704956 0.422577 0.234589
0.738007 0.437256 0.248993
0.770264 0.451721 0.262756
0.801453 0.465881 0.275818
0.831421 0.479645 0.288330
0.859955 0.492981 0.300323
0.886902 0.505890 0.311859
0.912231 0.518219 0.322998
0.935730 0.530090 0.333740
0.957275 0.541321 0.344208
0.976837 0.552094 0.354370
0.994232 0.562195 0.364227
1.000000 0.575134 0.383331
1.000000 0.588959 0.405731
1.000000 0.601257 0.425537
1.000000 0.609650 0.438995
1.000000 0.614868 0.447662
1.000000 0.615570 0.448853
0.092377 0.305603 0.149231
0.092377 0.305603 0.149231
0.092377 0.305603 0.149231
0.092377 0.305603 0.149231
0.188293 0.303314 0.081726
0.298462 0.339722 0.061798
0.411102 0.410645 0.034698
0.461487 0.417603 0.070801
0.501831 0.424713 0.101929
0.535461 0.432098 0.128326
0.568542 0.440674 0.151520
0.602295 0.450287 0.172272
0.636322 0.460388 0.191254
0.670319 0.471191 0.208740
0.704010 0.482208 0.225098
0.737091 0.493347 0.240387
0.769348 0.504578 0.254852
0.800629 0.515778 0.268585
0.830627 0.526794 0.281647
0.859222 0.537506 0.294159
0.886292 0.548035 0.306091
0.911682 0.558105 0.317657
0.935242 0.567902 0.328796
0.956879 0.577209 0.339539
0.976471 0.586121 0.349976
0.993958 0.594391 0.360107
1.000000 0.604767 0.379272
1.000000 0.615845 0.401947
1.000000 0.625946 0.422058
1.000000 0.632874 0.435944
1.000000 0.636871 0.444794
1.000000 0.637482 0.445953
0.045654 0.377960 0.134247
0.045654 0.377960 0.134247
0.045654 0.377960 0.134247
0.045654 0.377960 0.134247
0.152222 0.376770 0.029022
0.243103 0.375458 0.011627
0.326935 0.402740 0.000000
0.430389 0.460419 0.034668
0.500946 0.491791 0.075378
0.534637 0.495087 0.107178
0.567596 0.500031 0.133881
0.601288 0.506317 0.157257
0.635284 0.513733 0.178101
0.669312 0.521759 0.197144
0.702972 0.530243 0.214691
0.736115 0.539032 0.230957
0.768433 0.548157 0.246277
0.799774 0.557129 0.260773
0.829865 0.566284 0.274475
0.858521 0.575104 0.287476
0.885651 0.583923 0.299957
0.911102 0.592377 0.311981
0.934723 0.600464 0.323517
0.956451 0.608307 0.334564
0.976105 0.615753 0.345337
0.993652 0.622681 0.355743
1.000000 0.630859 0.374969
1.000000 0.639709 0.397919
1.000000 0.647827 0.418335
1.000000 0.653351 0.432739
1.000000 0.656677 0.441742
1.000000 0.657166 0.442963
0.026428 0.432526 0.134705
0.026428 0.432526 0.134705
0.026428 0.432526 0.134705
0.026428 0.432526 0.134705
0.128784 0.431915 0.009308
0.221497 0.421997 0.000000
0.275238 0.403656 0.000000
0.358307 0.449493 0.000000
0.448730 0.500427 0.038055
0.517609 0.534027 0.079803
0.566711 0.551941 0.112152
0.600281 0.555481 0.139099
0.634247 0.560333 0.162598
0.668243 0.566254 0.183563
0.701965 0.572754 0.202637
0.735107 0.579712 0.220184
0.767517 0.586945 0.236542
0.798859 0.594421 0.251892
0.829041 0.601837 0.266357
0.857727 0.609222 0.280029
0.884949 0.616486 0.293091
0.910492 0.623535 0.305573
0.934143 0.630341 0.317505
0.955963 0.636993 0.329071
0.975708 0.643219 0.340210
0.993317 0.649078 0.350922
1.000000 0.655426 0.370178
1.000000 0.662384 0.393494
1.000000 0.669189 0.414185
1.000000 0.674164 0.429169
1.000000 0.677368 0.438354
1.000000 0.677826 0.439636
0.040222 0.475464 0.156250
0.040222 0.475464 0.156250
0.040222 0.475464 0.156250
0.040222 0.475464 0.156250
0.121887 0.475189 0.022980
0.213013 0.475006 0.004974
0.272156 0.460266 0.000000
0.311493 0.444550 0.000000
0.385345 0.489868 0.000000
0.464447 0.533875 0.041107
0.532135 0.566040 0.083710
0.598328 0.599396 0.116394
0.633209 0.602966 0.143646
0.667175 0.606750 0.167236
0.700867 0.611420 0.188416
0.734039 0.616699 0.207642
0.766449 0.622406 0.225220
0.797913 0.628296 0.241699
0.828156 0.634491 0.257050
0.856934 0.640564 0.271545
0.884186 0.646576 0.285248
0.909821 0.652435 0.298340
0.933624 0.658417 0.310822
0.955475 0.664185 0.322845
0.975311 0.669861 0.334381
0.993011 0.675262 0.345490
1.000000 0.680725 0.364838
1.000000 0.686218 0.388550
1.000000 0.691986 0.409637
1.000000 0.696442 0.425171
1.000000 0.699371 0.434631
1.000000 0.699768 0.435913
0.054382 0.511536 0.176270
0.054382 0.511536 0.176270
0.054382 0.511536 0.176270
0.054382 0.511536 0.176270
0.117920 0.511505 0.038727
0.207092 0.511536 0.020569
0.267853 0.511566 0.001740
0.309662 0.492584 0.000000
0.340729 0.479279 0.000000
0.406769 0.522949 0.000000
0.484375 0.565918 0.043182
0.554077 0.598694 0.086792
0.621674 0.632294 0.119995
0.666107 0.644470 0.147583
0.699799 0.647308 0.171478
0.732971 0.650940 0.192780
0.765442 0.655334 0.212128
0.796906 0.660126 0.229889
0.827179 0.665253 0.246368
0.856079 0.670654 0.261810
0.883423 0.676208 0.276337
0.909088 0.681671 0.290161
0.932953 0.687286 0.303223
0.954956 0.692780 0.315765
0.974854 0.698090 0.327820
0.992615 0.703339 0.339417
1.000000 0.707611 0.358856
1.000000 0.711823 0.382996
1.000000 0.716187 0.404480
1.000000 0.720001 0.420746
1.000000 0.722717 0.430420
1.000000 0.723083 0.431763
0.067902 0.542969 0.194550
0.067902 0.542969 0.194550
0.067902 0.542969 0.194550
0.067902 0.542969 0.194550
0.115784 0.542938 0.054352
0.203186 0.543060 0.037933
0.263123 0.543243 0.019104
0.309235 0.542450 0.000000
0.339294 0.520325 0.000000
0.364960 0.509338 0.000000
0.429047 0.553162 0.000000
0.509949 0.598572 0.044403
0.580719 0.631592 0.089050
0.648773 0.665192 0.122833
0.698730 0.682953 0.150848
0.731903 0.685547 0.175079
0.764343 0.688934 0.196564
0.795868 0.693115 0.216095
0.826233 0.697693 0.233978
0.855164 0.702576 0.250671
0.882568 0.707550 0.266144
0.908356 0.712677 0.280762
0.932343 0.717957 0.294617
0.954407 0.722992 0.307831
0.974396 0.728058 0.320435
0.992249 0.732910 0.332489
1.000000 0.736176 0.352173
1.000000 0.738617 0.376831
1.000000 0.741821 0.398773
1.000000 0.744812 0.415741
1.000000 0.747223 0.425751
1.000000 0.747681 0.427124
0.080780 0.574982 0.212524
0.080780 0.574982 0.212524
0.080780 0.574982 0.212524
0.080780 0.574982 0.212524
0.113434 0.574860 0.068695
0.199432 0.574829 0.054657
0.258850 0.574921 0.037964
0.304382 0.575195 0.017792
0.340546 0.571655 0.000000
0.362244 0.548096 0.000000
0.387024 0.539215 0.000000
0.451599 0.583130 0.000000
0.535248 0.631531 0.044586
0.606384 0.664551 0.090393
0.674042 0.697815 0.124969
0.730896 0.722565 0.153534
0.763336 0.724915 0.178162
0.794891 0.728088 0.199951
0.825226 0.731934 0.219696
0.854248 0.736237 0.237701
0.881744 0.740692 0.254486
0.907593 0.745270 0.270142
0.931610 0.750031 0.284851
0.953796 0.754730 0.298828
0.973907 0.759338 0.312134
0.991882 0.763885 0.324799
1.000000 0.765930 0.344696
1.000000 0.766815 0.369965
1.000000 0.768433 0.392395
1.000000 0.770630 0.410217
1.000000 0.772797 0.420563
1.000000 0.773102 0.421997
0.092957 0.607910 0.230255
0.092957 0.607910 0.230255
0.092957 0.607910 0.230255
0.092957 0.607910 0.230255
0.110962 0.607758 0.082214
0.195160 0.607697 0.069885
0.254028 0.607666 0.055420
0.299652 0.607788 0.037964
0.335968 0.608093 0.016449
0.364349 0.601746 0.000000
0.382843 0.576721 0.000000
0.409454 0.570068 0.000000
0.472778 0.612061 0.000000
0.559326 0.664520 0.043732
0.630310 0.697205 0.091034
0.697449 0.730011 0.126556
0.761597 0.762329 0.155670
0.793854 0.765106 0.180664
0.824219 0.767944 0.202789
0.853302 0.771393 0.222778
0.880890 0.775299 0.241028
0.906799 0.779266 0.257935
0.930939 0.783508 0.273773
0.953156 0.787537 0.288696
0.973389 0.791809 0.302765
0.991486 0.795929 0.316101
1.000000 0.796967 0.336334
1.000000 0.796021 0.362244
1.000000 0.796204 0.385345
1.000000 0.797333 0.404053
1.000000 0.799133 0.414825
1.000000 0.799469 0.416260
0.104462 0.641510 0.247650
0.104462 0.641510 0.247650
0.104462 0.641510 0.247650
0.104462 0.641510 0.247650
0.108215 0.641357 0.094727
0.190582 0.641205 0.083923
0.248688 0.641113 0.071320
0.294159 0.641144 0.056274
0.330933 0.641296 0.037933
0.360352 0.641663 0.015106
0.385956 0.632599 0.000000
0.403839 0.606110 0.000000
0.432068 0.601563 0.000000
0.492523 0.640015 0.000000
0.582306 0.697388 0.041779
0.652802 0.729492 0.090973
0.718994 0.761566 0.127502
0.781616 0.792938 0.157257
0.823273 0.805756 0.182709
0.852386 0.808136 0.205261
0.880005 0.811127 0.225464
0.906006 0.814545 0.244049
0.930237 0.817993 0.261078
0.952576 0.821655 0.277161
0.972870 0.825287 0.292175
0.991058 0.828918 0.306427
1.000000 0.828979 0.327057
1.000000 0.826111 0.353729
1.000000 0.824768 0.377472
1.000000 0.824738 0.397247
1.000000 0.826263 0.408447
1.000000 0.826569 0.409943
0.115601 0.675507 0.264862
0.115601 0.675507 0.264862
0.115601 0.675507 0.264862
0.115601 0.675507 0.264862
0.106842 0.675354 0.108368
0.185852 0.675201 0.096893
0.243256 0.675049 0.085907
0.288513 0.674988 0.072845
0.325226 0.675049 0.057190
0.355194 0.675262 0.037903
0.382874 0.675690 0.013794
0.408142 0.663940 0.000000
0.425201 0.636078 0.000000
0.454529 0.633484 0.000000
0.510437 0.666473 0.000000
0.603607 0.729828 0.038666
0.673645 0.761139 0.090118
0.738586 0.792267 0.127808
0.799286 0.822479 0.158234
0.851532 0.846649 0.184296
0.879211 0.848694 0.207184
0.905243 0.850983 0.227783
0.929565 0.853882 0.246613
0.951965 0.856903 0.263947
0.972382 0.859833 0.280182
0.990662 0.862854 0.295441
1.000000 0.861847 0.316620
1.000000 0.857178 0.344177
1.000000 0.854187 0.368683
1.000000 0.852783 0.389648
1.000000 0.853821 0.401306
1.000000 0.854095 0.402924
0.126312 0.709564 0.281799
0.126312 0.709564 0.281799
0.126312 0.709564 0.281799
0.126312 0.709564 0.281799
0.118256 0.709351 0.133972
0.181122 0.709198 0.109375
0.237701 0.709045 0.099426
0.282440 0.708954 0.087891
0.319122 0.708923 0.074310
0.349457 0.708984 0.057983
0.377991 0.709229 0.037933
0.406128 0.709778 0.012634
0.430603 0.695496 0.000000
0.446808 0.666718 0.000000
0.476898 0.665558 0.000000
0.526703 0.691254 0.000000
0.623566 0.761719 0.034363
0.692535 0.791992 0.088440
0.755798 0.821930 0.127472
0.814636 0.850800 0.158752
0.869476 0.878448 0.185425
0.904541 0.888733 0.208740
0.928894 0.890656 0.229736
0.951385 0.892731 0.248871
0.971893 0.895081 0.266571
0.990265 0.897552 0.283020
1.000000 0.895477 0.304962
1.000000 0.888702 0.333466
1.000000 0.884033 0.358948
1.000000 0.881104 0.381134
1.000000 0.881836 0.393494
1.000000 0.882019 0.395111
0.136658 0.743317 0.298401
0.136658 0.743317 0.298401
0.136658 0.743317 0.298401
0.136658 0.743317 0.298401
0.129272 0.743134 0.158661
0.176361 0.742950 0.121094
0.232056 0.742798 0.112122
0.276550 0.742676 0.101776
0.312897 0.742584 0.089752
0.343414 0.742584 0.075806
0.372559 0.742676 0.058868
0.401703 0.742981 0.038025
0.429779 0.743622 0.011566
0.453217 0.726868 0.000000
0.469330 0.698547 0.000000
0.499023 0.697388 0.000000
0.542877 0.716156 0.000000
0.641937 0.792816 0.028839
0.709930 0.821838 0.086060
0.771210 0.850372 0.126526
0.827820 0.877869 0.158783
0.880280 0.903931 0.186127
0.928284 0.928284 0.210052
0.950867 0.929443 0.231476
0.971436 0.930969 0.250916
0.989929 0.932709 0.268890
1.000000 0.929443 0.291779
1.000000 0.920654 0.321533
1.000000 0.914215 0.348053
1.000000 0.909760 0.371490
1.000000 0.910034 0.384735
1.000000 0.910126 0.386444
0.146667 0.776550 0.314606
0.146667 0.776550 0.314606
0.146667 0.776550 0.314606
0.146667 0.776550 0.314606
0.139862 0.776337 0.182281
0.171967 0.776154 0.132355
0.226654 0.776031 0.124176
0.270416 0.775940 0.114838
0.306793 0.775818 0.104095
0.337189 0.775757 0.091675
0.366791 0.775787 0.077179
0.396515 0.775970 0.059723
0.425781 0.776306 0.038147
0.453644 0.776978 0.010559
0.475952 0.757965 0.000000
0.491516 0.729980 0.000000
0.520660 0.728851 0.000000
0.561981 0.745178 0.000000
0.658691 0.822998 0.021881
0.725342 0.850555 0.082764
0.784607 0.877594 0.124969
0.838898 0.903473 0.158417
0.888550 0.927826 0.186462
0.933807 0.950409 0.210938
0.971039 0.967438 0.232788
0.989594 0.968353 0.252594
1.000000 0.963989 0.276978
1.000000 0.952881 0.308136
1.000000 0.944702 0.335876
1.000000 0.938782 0.360382
1.000000 0.938202 0.374939
1.000000 0.938232 0.376831
0.156372 0.808929 0.330353
0.156372 0.808929 0.330353
0.156372 0.808929 0.330353
0.156372 0.808929 0.330353
0.150177 0.808777 0.204834
0.167847 0.808594 0.143311
0.221436 0.808472 0.135712
0.264740 0.808319 0.127228
0.300629 0.808258 0.117462
0.331055 0.808197 0.106445
0.360992 0.808136 0.093536
0.391205 0.808228 0.078583
0.420959 0.808411 0.060547
0.450165 0.808868 0.038391
0.477661 0.809631 0.009796
0.498474 0.788605 0.000000
0.513153 0.760712 0.000000
0.541718 0.759644 0.000000
0.580109 0.773224 0.000000
0.673706 0.852112 0.013123
0.739044 0.877991 0.078705
0.796326 0.903412 0.122955
0.848053 0.927582 0.157440
0.894714 0.950104 0.186401
0.936798 0.970734 0.211456
0.974396 0.989349 0.233795
1.000000 0.998566 0.259979
1.000000 0.985321 0.292938
1.000000 0.975342 0.322144
1.000000 0.967682 0.347931
1.000000 0.966309 0.364105
1.000000 0.966248 0.366058
0.165955 0.840302 0.345734
0.165955 0.840302 0.345734
0.165955 0.840302 0.345734
0.165955 0.840302 0.345734
0.160156 0.840149 0.226563
0.164063 0.840027 0.153687
0.216736 0.839874 0.146851
0.259338 0.839752 0.139069
0.294922 0.839661 0.130188
0.325287 0.839600 0.120117
0.355469 0.839569 0.108704
0.385742 0.839600 0.095398
0.416046 0.839722 0.079926
0.445984 0.839966 0.061493
0.474640 0.840485 0.038696
0.501465 0.841339 0.009216
0.520569 0.818512 0.000000
0.534485 0.790619 0.000000
0.562103 0.789581 0.000000
0.597229 0.800201 0.000000
0.687012 0.880035 0.002563
0.751038 0.904083 0.073792
0.806091 0.927704 0.120270
0.855103 0.950073 0.156128
0.898773 0.970612 0.185883
0.937622 0.989258 0.211670
0.966431 1.000000 0.240387
0.981964 1.000000 0.275482
0.994080 1.000000 0.306549
1.000000 0.996735 0.333893
1.000000 0.993988 0.351837
1.000000 0.993835 0.353973
0.175354 0.870392 0.360657
0.175354 0.870392 0.360657
0.175354 0.870392 0.360657
0.175354 0.870392 0.360657
0.169891 0.870270 0.247345
0.163910 0.870117 0.167023
0.212280 0.869995 0.157471
0.254364 0.869904 0.150360
0.289459 0.869812 0.142212
0.319763 0.869751 0.133087
0.350159 0.869720 0.122742
0.380646 0.869720 0.110931
0.411346 0.869812 0.097321
0.441620 0.870026 0.081360
0.470947 0.870300 0.062500
0.499084 0.870880 0.039154
0.525299 0.871857 0.008972
0.542511 0.847473 0.000000
0.555145 0.819397 0.000000
0.581635 0.818420 0.000000
0.613434 0.825989 0.000000
0.693939 0.897491 0.000000
0.761383 0.928711 0.067719
0.813873 0.950439 0.116821
0.860138 0.970764 0.154236
0.900787 0.989349 0.185059
0.931427 1.000000 0.217499
0.949463 1.000000 0.255402
0.963531 1.000000 0.288727
0.974518 1.000000 0.317963
0.978516 1.000000 0.337952
0.978729 1.000000 0.340302
0.184601 0.898926 0.375031
0.184601 0.898926 0.375031
0.184601 0.898926 0.375031
0.184601 0.898926 0.375031
0.179443 0.898834 0.267273
0.173889 0.898712 0.189636
0.208435 0.898621 0.167938
0.249847 0.898529 0.161285
0.284454 0.898468 0.153717
0.314728 0.898407 0.145416
0.345032 0.898376 0.136017
0.375946 0.898407 0.125275
0.406677 0.898468 0.113159
0.437256 0.898621 0.099243
0.467194 0.898834 0.082977
0.496185 0.899261 0.063751
0.523651 0.899902 0.039886
0.548798 0.900909 0.008972
0.563995 0.875366 0.000000
0.575012 0.846893 0.000000
0.600403 0.845978 0.000000
0.628510 0.850464 0.000000
0.696960 0.909149 0.000000
0.769867 0.951782 0.060547
0.820099 0.971466 0.112762
0.863281 0.989716 0.151825
0.896179 1.000000 0.190033
0.916718 1.000000 0.231781
0.933167 1.000000 0.268066
0.945984 1.000000 0.299652
0.951508 1.000000 0.322235
0.951874 1.000000 0.324738
0.193573 0.925751 0.388763
0.193573 0.925751 0.388763
0.193573 0.925751 0.388763
0.193573 0.925751 0.388763
0.188843 0.925690 0.286346
0.183655 0.925598 0.211365
0.205231 0.925537 0.178040
0.245789 0.925446 0.171814
0.280060 0.925385 0.164948
0.310059 0.925354 0.157227
0.340637 0.925354 0.148529
0.371552 0.925385 0.138794
0.402496 0.925446 0.127960
0.433319 0.925568 0.115509
0.463593 0.925720 0.101318
0.493073 0.926025 0.084747
0.521271 0.926514 0.065125
0.547638 0.927216 0.040802
0.571625 0.928375 0.009338
0.584869 0.901978 0.000000
0.594116 0.872864 0.000000
0.618225 0.871979 0.000000
0.642792 0.873535 0.000000
0.697937 0.917725 0.000000
0.776855 0.973206 0.051941
0.824524 0.990692 0.107941
0.860046 1.000000 0.155823
0.883881 1.000000 0.203339
0.902679 1.000000 0.243652
0.917542 1.000000 0.278442
0.924896 1.000000 0.304016
0.925385 1.000000 0.306885
0.202576 0.950653 0.402008
0.202576 0.950653 0.402008
0.202576 0.950653 0.402008
0.202576 0.950653 0.402008
0.198090 0.950592 0.304291
0.193207 0.950500 0.231842
0.202667 0.950470 0.187958
0.242645 0.950439 0.182251
0.276184 0.950409 0.175751
0.306213 0.950378 0.168610
0.336884 0.950409 0.160645
0.367737 0.950439 0.151642
0.398834 0.950500 0.141754
0.429718 0.950653 0.130615
0.460327 0.950806 0.117889
0.490143 0.951050 0.103333
0.518768 0.951416 0.086517
0.546051 0.951965 0.066620
0.571411 0.952759 0.041962
0.594055 0.954010 0.010132
0.605347 0.927277 0.000000
0.612427 0.897186 0.000000
0.635101 0.896393 0.000000
0.656372 0.895569 0.000000
0.696625 0.922516 0.000000
0.782043 0.992950 0.041565
0.822601 1.000000 0.110565
0.850220 1.000000 0.167633
0.872223 1.000000 0.214111
0.889343 1.000000 0.253357
0.898987 1.000000 0.282867
0.899414 1.000000 0.286041
0.211395 0.973389 0.414551
0.211395 0.973389 0.414551
0.211395 0.973389 0.414551
0.211395 0.973389 0.414551
0.207245 0.973328 0.321533
0.202606 0.973328 0.251526
0.200958 0.973267 0.197754
0.239990 0.973297 0.192322
0.273132 0.973267 0.186279
0.303040 0.973267 0.179626
0.333588 0.973328 0.172241
0.364594 0.973358 0.164032
0.395905 0.973450 0.154907
0.426971 0.973572 0.144684
0.457520 0.973755 0.133331
0.487579 0.974030 0.120331
0.516449 0.974335 0.105621
0.544403 0.974762 0.088531
0.570557 0.975372 0.068329
0.594604 0.976288 0.043457
0.615906 0.977600 0.011169
0.625122 0.950806 0.000000
0.629944 0.919556 0.000000
0.651001 0.918854 0.000000
0.670654 0.918121 0.000000
0.701752 0.935364 0.000000
0.779785 1.000000 0.040436
0.814941 1.000000 0.119629
0.840820 1.000000 0.176819
0.861084 1.000000 0.222717
0.873291 1.000000 0.257477
0.873932 1.000000 0.261200
0.220276 0.993835 0.426514
0.220276 0.993835 0.426514
0.220276 0.993835 0.426514
0.220276 0.993835 0.426514
0.216278 0.993805 0.337585
0.211945 0.993835 0.269989
0.207336 0.993866 0.214813
0.238190 0.993835 0.202240
0.270782 0.993866 0.196625
0.300659 0.993927 0.190399
0.331329 0.993988 0.183533
0.362274 0.994019 0.175934
0.393524 0.994171 0.167480
0.424591 0.994324 0.158203
0.455322 0.994476 0.147705
0.485535 0.994720 0.136108
0.514709 0.995026 0.122986
0.542816 0.995392 0.108002
0.569641 0.995972 0.090729
0.594482 0.996643 0.070190
0.617218 0.997620 0.045227
0.636841 0.999054 0.012573
0.644073 0.972778 0.000000
0.646240 0.940002 0.000000
0.665741 0.939331 0.000000
0.683838 0.938660 0.000000
0.710114 0.951782 0.000000
0.773102 1.000000 0.041870
0.807434 1.000000 0.125580
0.831757 1.000000 0.183502
0.847565 1.000000 0.226288
0.848450 1.000000 0.230774
0.240814 1.000000 0.443207
0.240814 1.000000 0.443207
0.240814 1.000000 0.443207
0.240814 1.000000 0.443207
0.237030 1.000000 0.360718
0.233002 1.000000 0.297424
0.228699 1.000000 0.245270
0.248596 1.000000 0.223969
0.279388 1.000000 0.218719
0.308258 1.000000 0.212952
0.337769 1.000000 0.206635
0.367920 1.000000 0.199677
0.398163 1.000000 0.192047
0.428131 1.000000 0.183563
0.457886 1.000000 0.174225
0.487213 1.000000 0.163879
0.515533 1.000000 0.152313
0.542816 1.000000 0.139435
