projects/Assignment 1 (week 3)/res/luts/Not as cool.CUBE
#Created by: Adobe Photoshop Export Color Lookup Plugin
TITLE "not as cool"
#LUT size
LUT_3D_SIZE 8
#data domain
#LUT data points
DOMAIN_MIN 0.000000 0.000000 0.000000
DOMAIN_MAX 0.903226 0.903226 0.903226
0.000000 0.000000 0.000000
0.152557 0.000000 0.000000
0.288269 0.000000 0.000000
0.418304 0.000000 0.000000
0.544800 0.000000 0.000000
0.668671 0.000000 0.000000
0.790558 0.000000 0.000000
0.910767 0.000000 0.000000
0.000000 0.136871 0.000000
0.152557 0.136871 0.000000
0.288269 0.136871 0.000000
0.418304 0.136871 0.000000
0.544800 0.136871 0.000000
0.668671 0.136871 0.000000
0.790558 0.136871 0.000000
0.910767 0.136871 0.000000
0.000000 0.268311 0.000000
0.152557 0.268311 0.000000
0.288269 0.268311 0.000000
0.418304 0.268311 0.000000
0.544800 0.268311 0.000000
0.668671 0.268311 0.000000
0.790558 0.268311 0.000000
0.910767 0.268311 0.000000
0.000000 0.397797 0.000000
0.152557 0.397797 0.000000
0.288269 0.397797 0.000000
0.418304 0.397797 0.000000
0.544800 0.397797 0.000000
0.668671 0.397797 0.000000
0.790558 0.397797 0.000000
0.910767 0.397797 0.000000
0.000000 0.526062 0.000000
0.152557 0.526062 0.000000
0.288269 0.526062 0.000000
0.418304 0.526062 0.000000
0.544800 0.526062 0.000000
0.668671 0.526062 0.000000
0.790558 0.526062 0.000000
0.910767 0.526062 0.000000
0.000000 0.653351 0.000000
0.152557 0.653351 0.000000
0.288269 0.653351 0.000000
0.418304 0.653351 0.000000
0.544800 0.653351 0.000000
0.668671 0.653351 0.000000
0.790558 0.653351 0.000000
0.910767 0.653351 0.000000
0.000000 0.779907 0.000000
0.152557 0.779907 0.000000
0.288269 0.779907 0.000000
0.418304 0.779907 0.000000
0.544800 0.779907 0.000000
0.668671 0.779907 0.000000
0.790558 0.779907 0.000000
0.910767 0.779907 0.000000
0.000000 0.905884 0.000000
0.152557 0.905884 0.000000
0.288269 0.905884 0.000000
0.418304 0.905884 0.000000
0.544800 0.905884 0.000000
0.668671 0.905884 0.000000
0.790558 0.905884 0.000000
0.910767 0.905884 0.000000
0.000000 0.000000 0.107544
0.152557 0.000000 0.107544
0.288269 0.000000 0.107544
0.418304 0.000000 0.107544
0.544800 0.000000 0.107544
0.668671 0.000000 0.107544
0.790558 0.000000 0.107544
0.910767 0.000000 0.107544
0.000000 0.136871 0.107544
0.152557 0.136871 0.107544
0.288269 0.136871 0.107544
0.418304 0.136871 0.107544
0.544800 0.136871 0.107544
0.668671 0.136871 0.107544
0.790558 0.136871 0.107544
0.910767 0.136871 0.107544
0.000000 0.268311 0.107544
0.152557 0.268311 0.107544
0.288269 0.268311 0.107544
0.418304 0.268311 0.107544
0.544800 0.268311 0.107544
0.668671 0.268311 0.107544
0.790558 0.268311 0.107544
0.910767 0.268311 0.107544
0.000000 0.397797 0.107544
0.152557 0.397797 0.107544
0.288269 0.397797 0.107544
0.418304 0.397797 0.107544
0.544800 0.397797 0.107544
0.668671 0.397797 0.107544
0.790558 0.397797 0.107544
0.910767 0.397797 0.107544
0.000000 0.526062 0.107544
0.152557 0.526062 0.107544
0.288269 0.526062 0.107544
0.418304 0.526062 0.107544
0.544800 0.526062 0.107544
0.668671 0.526062 0.107544
0.790558 0.526062 0.107544
0.910767 0.526062 0.107544
0.000000 0.653351 0.107544
0.152557 0.653351 0.107544
0.288269 0.653351 0.107544
0.418304 0.653351 0.107544
0.544800 0.653351 0.107544
0.668671 0.653351 0.107544
0.790558 0.653351 0.107544
0.910767 0.653351 0.107544
0.000000 0.779907 0.107544
0.152557 0.779907 0.107544
0.288269 0.779907 0.107544
0.418304 0.779907 0.107544
0.544800 0.779907 0.107544
0.668671 0.779907 0.107544
0.790558 0.779907 0.107544
0.910767 0.779907 0.107544
0.000000 0.905884 0.107544
0.152557 0.905884 0.107544
0.288269 0.905884 0.107544
0.418304 0.905884 0.107544
0.544800 0.905884 0.107544
0.668671 0.905884 0.107544
0.790558 0.905884 0.107544
0.910767 0.905884 0.107544
0.000000 0.000000 0.228790
0.152557 0.000000 0.228790
0.288269 0.000000 0.228790
0.418304 0.000000 0.228790
0.544800 0.000000 0.228790
0.668671 0.000000 0.228790
0.790558 0.000000 0.228790
0.910767 0.000000 0.228790
0.000000 0.136871 0.228790
0.152557 0.136871 0.228790
0.288269 0.136871 0.228790
0.418304 0.136871 0.228790
0.544800 0.136871 0.228790
0.668671 0.136871 0.228790
0.790558 0.136871 0.228790
0.910767 0.136871 0.228790
0.000000 0.268311 0.228790
0.152557 0.268311 0.228790
0.288269 0.268311 0.228790
0.418304 0.268311 0.228790
0.544800 0.268311 0.228790
0.668671 0.268311 0.228790
0.790558 0.268311 0.228790
0.910767 0.268311 0.228790
0.000000 0.397797 0.228790
0.152557 0.397797 0.228790
0.288269 0.397797 0.228790
0.418304 0.397797 0.228790
0.544800 0.397797 0.228790
0.668671 0.397797 0.228790
0.790558 0.397797 0.228790
0.910767 0.397797 0.228790
0.000000 0.526062 0.228790
0.152557 0.526062 0.228790
0.288269 0.526062 0.228790
0.418304 0.526062 0.228790
0.544800 0.526062 0.228790
0.668671 0.526062 0.228790
0.790558 0.526062 0.228790
0.910767 0.526062 0.228790
0.000000 0.653351 0.228790
0.152557 0.653351 0.228790
0.288269 0.653351 0.228790
0.418304 0.653351 0.228790
0.544800 0.653351 0.228790
0.668671 0.653351 0.228790
0.790558 0.653351 0.228790
0.910767 0.653351 0.228790
0.000000 0.779907 0.228790
0.152557 0.779907 0.228790
0.288269 0.779907 0.228790
0.418304 0.779907 0.228790
0.544800 0.779907 0.228790
0.668671 0.779907 0.228790
0.790558 0.779907 0.228790
0.910767 0.779907 0.228790
0.000000 0.905884 0.228790
0.152557 0.905884 0.228790
0.288269 0.905884 0.228790
0.418304 0.905884 0.228790
0.544800 0.905884 0.228790
0.668671 0.905884 0.228790
0.790558 0.905884 0.228790
0.910767 0.905884 0.228790
0.000000 0.000000 0.355804
0.152557 0.000000 0.355804
0.288269 0.000000 0.355804
0.418304 0.000000 0.355804
0.544800 0.000000 0.355804
0.668671 0.000000 0.355804
0.790558 0.000000 0.355804
0.910767 0.000000 0.355804
0.000000 0.136871 0.355804
0.152557 0.136871 0.355804
0.288269 0.136871 0.355804
0.418304 0.136871 0.355804
0.544800 0.136871 0.355804
0.668671 0.136871 0.355804
0.790558 0.136871 0.355804
0.910767 0.136871 0.355804
0.000000 0.268311 0.355804
0.152557 0.268311 0.355804
0.288269 0.268311 0.355804
0.418304 0.268311 0.355804
0.544800 0.268311 0.355804
0.668671 0.268311 0.355804
0.790558 0.268311 0.355804
0.910767 0.268311 0.355804
0.000000 0.397797 0.355804
0.152557 0.397797 0.355804
0.288269 0.397797 0.355804
0.418304 0.397797 0.355804
0.544800 0.397797 0.355804
0.668671 0.397797 0.355804
0.790558 0.397797 0.355804
0.910767 0.397797 0.355804
0.000000 0.526062 0.355804
0.152557 0.526062 0.355804
0.288269 0.526062 0.355804
0.418304 0.526062 0.355804
0.544800 0.526062 0.355804
0.668671 0.526062 0.355804
0.790558 0.526062 0.355804
0.910767 0.526062 0.355804
0.000000 0.653351 0.355804
0.152557 0.653351 0.355804
0.288269 0.653351 0.355804
0.418304 0.653351 0.355804
0.544800 0.653351 0.355804
0.668671 0.653351 0.355804
0.790558 0.653351 0.355804
0.910767 0.653351 0.355804
0.000000 0.779907 0.355804
0.152557 0.779907 0.355804
0.288269 0.779907 0.355804
0.418304 0.779907 0.355804
0.544800 0.779907 0.355804
0.668671 0.779907 0.355804
0.790558 0.779907 0.355804
0.910767 0.779907 0.355804
0.000000 0.905884 0.355804
0.152557 0.905884 0.355804
0.288269 0.905884 0.355804
0.418304 0.905884 0.355804
0.544800 0.905884 0.355804
0.668671 0.905884 0.355804
0.790558 0.905884 0.355804
0.910767 0.905884 0.355804
0.000000 0.000000 0.486664
0.152557 0.000000 0.486664
0.288269 0.000000 0.486664
0.418304 0.000000 0.486664
0.544800 0.000000 0.486664
0.668671 0.000000 0.486664
0.790558 0.000000 0.486664
0.910767 0.000000 0.486664
0.000000 0.136871 0.486664
0.152557 0.136871 0.486664
0.288269 0.136871 0.486664
0.418304 0.136871 0.486664
0.544800 0.136871 0.486664
0.668671 0.136871 0.486664
0.790558 0.136871 0.486664
0.910767 0.136871 0.486664
0.000000 0.268311 0.486664
0.152557 0.268311 0.486664
0.288269 0.268311 0.486664
0.418304 0.268311 0.486664
0.544800 0.268311 0.486664
0.668671 0.268311 0.486664
0.790558 0.268311 0.486664
0.910767 0.268311 0.486664
0.000000 0.397797 0.486664
0.152557 0.397797 0.486664
0.288269 0.397797 0.486664
0.418304 0.397797 0.486664
0.544800 0.397797 0.486664
0.668671 0.397797 0.486664
0.790558 0.397797 0.486664
0.910767 0.397797 0.486664
0.000000 0.526062 0.486664
0.152557 0.526062 0.486664
0.288269 0.526062 0.486664
0.418304 0.526062 0.486664
0.544800 0.526062 0.486664
0.668671 0.526062 0.486664
0.790558 0.526062 0.486664
0.910767 0.526062 0.486664
0.000000 0.653351 0.486664
0.152557 0.653351 0.486664
0.288269 0.653351 0.486664
0.418304 0.653351 0.486664
0.544800 0.653351 0.486664
0.668671 0.653351 0.486664
0.790558 0.653351 0.486664
0.910767 0.653351 0.486664
0.000000 0.779907 0.486664
0.152557 0.779907 0.486664
0.288269 0.779907 0.486664
0.418304 0.779907 0.486664
0.544800 0.779907 0.486664
0.668671 0.779907 0.486664
0.790558 0.779907 0.486664
0.910767 0.779907 0.486664
0.000000 0.905884 0.486664
0.152557 0.905884 0.486664
0.288269 0.905884 0.486664
0.418304 0.905884 0.486664
0.544800 0.905884 0.486664
0.668671 0.905884 0.486664
0.790558 0.905884 0.486664
0.910767 0.905884 0.486664
0.000000 0.000000 0.620544
0.152557 0.000000 0.620544
0.288269 0.000000 0.620544
0.418304 0.000000 0.620544
0.544800 0.000000 0.620544
0.668671 0.000000 0.620544
0.790558 0.000000 0.620544
0.910767 0.000000 0.620544
0.000000 0.136871 0.620544
0.152557 0.136871 0.620544
0.288269 0.136871 0.620544
0.418304 0.136871 0.620544
0.544800 0.136871 0.620544
0.668671 0.136871 0.620544
0.790558 0.136871 0.620544
0.910767 0.136871 0.620544
0.000000 0.268311 0.620544
0.152557 0.268311 0.620544
0.288269 0.268311 0.620544
0.418304 0.268311 0.620544
0.544800 0.268311 0.620544
0.668671 0.268311 0.620544
0.790558 0.268311 0.620544
0.910767 0.268311 0.620544
0.000000 0.397797 0.620544
0.152557 0.397797 0.620544
0.288269 0.397797 0.620544
0.418304 0.397797 0.620544
0.544800 0.397797 0.620544
0.668671 0.397797 0.620544
0.790558 0.397797 0.620544
0.910767 0.397797 0.620544
0.000000 0.526062 0.620544
0.152557 0.526062 0.620544
0.288269 0.526062 0.620544
0.418304 0.526062 0.620544
0.544800 0.526062 0.620544
0.668671 0.526062 0.620544
0.790558 0.526062 0.620544
0.910767 0.526062 0.620544
0.000000 0.653351 0.620544
0.152557 0.653351 0.620544
0.288269 0.653351 0.620544
0.418304 0.653351 0.620544
0.544800 0.653351 0.620544
0.668671 0.653351 0.620544
0.790558 0.653351 0.620544
0.910767 0.653351 0.620544
0.000000 0.779907 0.620544
0.152557 0.779907 0.620544
0.288269 0.779907 0.620544
0.418304 0.779907 0.620544
0.544800 0.779907 0.620544
0.668671 0.779907 0.620544
0.790558 0.779907 0.620544
0.910767 0.779907 0.620544
0.000000 0.905884 0.620544
0.152557 0.905884 0.620544
0.288269 0.905884 0.620544
0.418304 0.905884 0.620544
0.544800 0.905884 0.620544
0.668671 0.905884 0.620544
0.790558 0.905884 0.620544
0.910767 0.905884 0.620544
0.000000 0.000000 0.756775
0.152557 0.000000 0.756775
0.288269 0.000000 0.756775
0.418304 0.000000 0.756775
0.544800 0.000000 0.756775
0.668671 0.000000 0.756775
0.790558 0.000000 0.756775
0.910767 0.000000 0.756775
0.000000 0.136871 0.756775
0.152557 0.136871 0.756775
0.288269 0.136871 0.756775
0.418304 0.136871 0.756775
0.544800 0.136871 0.756775
0.668671 0.136871 0.756775
0.790558 0.136871 0.756775
0.910767 0.136871 0.756775
0.000000 0.268311 0.756775
0.152557 0.268311 0.756775
0.288269 0.268311 0.756775
0.418304 0.268311 0.756775
0.544800 0.268311 0.756775
0.668671 0.268311 0.756775
0.790558 0.268311 0.756775
0.910767 0.268311 0.756775
0.000000 0.397797 0.756775
0.152557 0.397797 0.756775
0.288269 0.397797 0.756775
0.418304 0.397797 0.756775
0.544800 0.397797 0.756775
0.668671 0.397797 0.756775
0.790558 0.397797 0.756775
0.910767 0.397797 0.756775
0.000000 0.526062 0.756775
0.152557 0.526062 0.756775
0.288269 0.526062 0.756775
0.418304 0.526062 0.756775
0.544800 0.526062 0.756775
0.668671 0.526062 0.756775
0.790558 0.526062 0.756775
0.910767 0.526062 0.756775
0.000000 0.653351 0.756775
0.152557 0.653351 0.756775
0.288269 0.653351 0.756775
0.418304 0.653351 0.756775
0.544800 0.653351 0.756775
0.668671 0.653351 0.756775
0.790558 0.653351 0.756775
0.910767 0.653351 0.756775
0.000000 0.779907 0.756775
0.152557 0.779907 0.756775
0.288269 0.779907 0.756775
0.418304 0.779907 0.756775
0.544800 0.779907 0.756775
0.668671 0.779907 0.756775
0.790558 0.779907 0.756775
0.910767 0.779907 0.756775
0.000000 0.905884 0.756775
0.152557 0.905884 0.756775
0.288269 0.905884 0.756775
0.418304 0.905884 0.756775
0.544800 0.905884 0.756775
0.668671 0.905884 0.756775
0.790558 0.905884 0.756775
0.910767 0.905884 0.756775
0.000000 0.000000 0.895081
0.152557 0.000000 0.895081
0.288269 0.000000 0.895081
0.418304 0.000000 0.895081
0.544800 0.000000 0.895081
0.668671 0.000000 0.895081
0.790558 0.000000 0.895081
0.910767 0.000000 0.895081
0.000000 0.136871 0.895081
0.152557 0.136871 0.895081
0.288269 0.136871 0.895081
0.418304 0.136871 0.895081
0.544800 0.136871 0.895081
0.668671 0.136871 0.895081
0.790558 0.136871 0.895081
0.910767 0.136871 0.895081
0.000000 0.268311 0.895081
0.152557 0.268311 0.895081
0.288269 0.268311 0.895081
0.418304 0.268311 0.895081
0.544800 0.268311 0.895081
0.668671 0.268311 0.895081
0.790558 0.268311 0.895081
0.910767 0.268311 0.895081
0.000000 0.397797 0.895081
0.152557 0.397797 0.895081
0.288269 0.397797 0.895081
0.418304 0.397797 0.895081
0.544800 0.397797 0.895081
0.668671 0.397797 0.895081
0.790558 0.397797 0.895081
0.910767 0.397797 0.895081
0.000000 0.526062 0.895081
0.152557 0.526062 0.895081
0.288269 0.526062 0.895081
0.418304 0.526062 0.895081
0.544800 0.526062 0.895081
0.668671 0.526062 0.895081
0.790558 0.526062 0.895081
0.910767 0.526062 0.895081
0.000000 0.653351 0.895081
0.152557 0.653351 0.895081
0.288269 0.653351 0.895081
0.418304 0.653351 0.895081
0.544800 0.653351 0.895081
0.668671 0.653351 0.895081
0.790558 0.653351 0.895081
0.910767 0.653351 0.895081
0.000000 0.779907 0.895081
0.152557 0.779907 0.895081
0.288269 0.779907 0.895081
0.418304 0.779907 0.895081
0.544800 0.779907 0.895081
0.668671 0.779907 0.895081
0.790558 0.779907 0.895081
0.910767 0.779907 0.895081
0.000000 0.905884 0.895081
0.152557 0.905884 0.895081
0.288269 0.905884 0.895081
0.418304 0.905884 0.895081
0.544800 0.905884 0.895081
0.668671 0.905884 0.895081
0.790558 0.905884 0.895081
0.910767 0.905884 0.895081
