projects/Assignment 1 (week 3)/res/luts/Not as cool.CUBE
#Created by: Adobe Photoshop Export Color Lookup Plugin
TITLE "not as cool"
#LUT size
LUT_3D_SIZE 5
#data domain
#LUT data points
DOMAIN_MIN 0.000000 0.000000 0.000000
DOMAIN_MAX 0.903226 0.903226 0.903226
0.000000 0.000000 0.000000
0.255005 0.000000 0.000000
0.481903 0.000000 0.000000
0.699341 0.000000 0.000000
0.910767 0.000000 0.000000
0.000000 0.235687 0.000000
0.255005 0.235687 0.000000
0.481903 0.235687 0.000000
0.699341 0.235687 0.000000
0.910767 0.235687 0.000000
0.000000 0.462036 0.000000
0.255005 0.462036 0.000000
0.481903 0.462036 0.000000
0.699341 0.462036 0.000000
0.910767 0.462036 0.000000
0.000000 0.685059 0.000000
0.255005 0.685059 0.000000
0.481903 0.685059 0.000000
0.699341 0.685059 0.000000
0.910767 0.685059 0.000000
0.000000 0.905884 0.000000
0.255005 0.905884 0.000000
0.481903 0.905884 0.000000
0.699341 0.905884 0.000000
0.910767 0.905884 0.000000
0.000000 0.000000 0.197815
0.255005 0.000000 0.197815
0.481903 0.000000 0.197815
0.699341 0.000000 0.197815
0.910767 0.000000 0.197815
0.000000 0.235687 0.197815
0.255005 0.235687 0.197815
0.481903 0.235687 0.197815
0.699341 0.235687 0.197815
0.910767 0.235687 0.197815
0.000000 0.462036 0.197815
0.255005 0.462036 0.197815
0.481903 0.462036 0.197815
0.699341 0.462036 0.197815
0.910767 0.462036 0.197815
0.000000 0.685059 0.197815
0.255005 0.685059 0.197815
0.481903 0.685059 0.197815
0.699341 0.685059 0.197815
0.910767 0.685059 0.197815
0.000000 0.905884 0.197815
0.255005 0.905884 0.197815
0.481903 0.905884 0.197815
0.699341 0.905884 0.197815
0.910767 0.905884 0.197815
0.000000 0.000000 0.420807
0.255005 0.000000 0.420807
0.481903 0.000000 0.420807
0.699341 0.000000 0.420807
0.910767 0.000000 0.420807
0.000000 0.235687 0.420807
0.255005 0.235687 0.420807
0.481903 0.235687 0.420807
0.699341 0.235687 0.420807
0.910767 0.235687 0.420807
0.000000 0.462036 0.420807
0.255005 0.462036 0.420807
0.481903 0.462036 0.420807
0.699341 0.462036 0.420807
0.910767 0.462036 0.420807
0.000000 0.685059 0.420807
0.255005 0.685059 0.420807
0.481903 0.685059 0.420807
0.699341 0.685059 0.420807
0.910767 0.685059 0.420807
0.000000 0.905884 0.420807
0.255005 0.905884 0.420807
0.481903 0.905884 0.420807
0.699341 0.905884 0.420807
0.910767 0.905884 0.420807
0.000000 0.000000 0.654388
0.255005 0.000000 0.654388
0.481903 0.000000 0.654388
0.699341 0.000000 0.654388
0.910767 0.000000 0.654388
0.000000 0.235687 0.654388
0.255005 0.235687 0.654388
0.481903 0.235687 0.654388
0.699341 0.235687 0.654388
0.910767 0.235687 0.654388
0.000000 0.462036 0.654388
0.255005 0.462036 0.654388
0.481903 0.462036 0.654388
0.699341 0.462036 0.654388
0.910767 0.462036 0.654388
0.000000 0.685059 0.654388
0.255005 0.685059 0.654388
0.481903 0.685059 0.654388
0.699341 0.685059 0.654388
0.910767 0.685059 0.654388
0.000000 0.905884 0.654388
0.255005 0.905884 0.654388
0.481903 0.905884 0.654388
0.699341 0.905884 0.654388
0.910767 0.905884 0.654388
0.000000 0.000000 0.895081
0.255005 0.000000 0.895081
0.481903 0.000000 0.895081
0.699341 0.000000 0.895081
0.910767 0.000000 0.895081
0.000000 0.235687 0.895081
0.255005 0.235687 0.895081
0.481903 0.235687 0.895081
0.699341 0.235687 0.895081
0.910767 0.235687 0.895081
0.000000 0.462036 0.895081
0.255005 0.462036 0.895081
0.481903 0.462036 0.895081
0.699341 0.462036 0.895081
0.910767 0.462036 0.895081
0.000000 0.685059 0.895081
0.255005 0.685059 0.895081
0.481903 0.685059 0.895081
0.699341 0.685059 0.895081
0.910767 0.685059 0.895081
0.000000 0.905884 0.895081
0.255005 0.905884 0.895081
0.481903 0.905884 0.895081
0.699341 0.905884 0.895081
0.910767 0.905884 0.895081
