projects/Assignment 1 (week 3)/res/luts/Not as cool.CUBE
#Created by: Adobe Photoshop Export Color Lookup Plugin
TITLE "not as cool"
#LUT size
LUT_3D_SIZE 32
#data domain
DOMAIN_MIN 0.0 0.0 0.0
DOMAIN_MAX 1.0 1.0 1.0
#LUT data points
0.000000 0.000000 0.000000
0.042725 0.000000 0.000000
0.080719 0.000000 0.000000
0.117126 0.000000 0.000000
0.152557 0.000000 0.000000
0.187225 0.000000 0.000000
0.221375 0.000000 0.000000
0.255005 0.000000 0.000000
0.288269 0.000000 0.000000
0.321198 0.000000 0.000000
0.353821 0.000000 0.000000
0.386200 0.000000 0.000000
0.418304 0.000000 0.000000
0.450195 0.000000 0.000000
0.481903 0.000000 0.000000
0.513428 0.000000 0.000000
0.544800 0.000000 0.000000
0.576019 0.000000 0.000000
0.607056 0.000000 0.000000
0.637939 0.000000 0.000000
0.668671 0.000000 0.000000
0.699341 0.000000 0.000000
0.729858 0.000000 0.000000
0.760284 0.000000 0.000000
0.790558 0.000000 0.000000
0.820770 0.000000 0.000000
0.850861 0.000000 0.000000
0.880859 0.000000 0.000000
0.910767 0.000000 0.000000
0.940582 0.000000 0.000000
0.970367 0.000000 0.000000
1.000000 0.000000 0.000000
0.000000 0.035583 0.000000
0.042725 0.035583 0.000000
0.080719 0.035583 0.000000
0.117126 0.035583 0.000000
0.152557 0.035583 0.000000
0.187225 0.035583 0.000000
0.221375 0.035583 0.000000
0.255005 0.035583 0.000000
0.288269 0.035583 0.000000
0.321198 0.035583 0.000000
0.353821 0.035583 0.000000
0.386200 0.035583 0.000000
0.418304 0.035583 0.000000
0.450195 0.035583 0.000000
0.481903 0.035583 0.000000
0.513428 0.035583 0.000000
0.544800 0.035583 0.000000
0.576019 0.035583 0.000000
0.607056 0.035583 0.000000
0.637939 0.035583 0.000000
0.668671 0.035583 0.000000
0.699341 0.035583 0.000000
0.729858 0.035583 0.000000
0.760284 0.035583 0.000000
0.790558 0.035583 0.000000
0.820770 0.035583 0.000000
0.850861 0.035583 0.000000
0.880859 0.035583 0.000000
0.910767 0.035583 0.000000
0.940582 0.035583 0.000000
0.970367 0.035583 0.000000
1.000000 0.035583 0.000000
0.000000 0.069794 0.000000
0.042725 0.069794 0.000000
0.080719 0.069794 0.000000
0.117126 0.069794 0.000000
0.152557 0.069794 0.000000
0.187225 0.069794 0.000000
0.221375 0.069794 0.000000
0.255005 0.069794 0.000000
0.288269 0.069794 0.000000
0.321198 0.069794 0.000000
0.353821 0.069794 0.000000
0.386200 0.069794 0.000000
0.418304 0.069794 0.000000
0.450195 0.069794 0.000000
0.481903 0.069794 0.000000
0.513428 0.069794 0.000000
0.544800 0.069794 0.000000
0.576019 0.069794 0.000000
0.607056 0.069794 0.000000
0.637939 0.069794 0.000000
0.668671 0.069794 0.000000
0.699341 0.069794 0.000000
0.729858 0.069794 0.000000
0.760284 0.069794 0.000000
0.790558 0.069794 0.000000
0.820770 0.069794 0.000000
0.850861 0.069794 0.000000
0.880859 0.069794 0.000000
0.910767 0.069794 0.000000
0.940582 0.069794 0.000000
0.970367 0.069794 0.000000
1.000000 0.069794 0.000000
0.000000 0.103485 0.000000
0.042725 0.103485 0.000000
0.080719 0.103485 0.000000
0.117126 0.103485 0.000000
0.152557 0.103485 0.000000
0.187225 0.103485 0.000000
0.221375 0.103485 0.000000
0.255005 0.103485 0.000000
0.288269 0.103485 0.000000
0.321198 0.103485 0.000000
0.353821 0.103485 0.000000
0.386200 0.103485 0.000000
0.418304 0.103485 0.000000
0.450195 0.103485 0.000000
0.481903 0.103485 0.000000
0.513428 0.103485 0.000000
0.544800 0.103485 0.000000
0.576019 0.103485 0.000000
0.607056 0.103485 0.000000
0.637939 0.103485 0.000000
0.668671 0.103485 0.000000
0.699341 0.103485 0.000000
0.729858 0.103485 0.000000
0.760284 0.103485 0.000000
0.790558 0.103485 0.000000
0.820770 0.103485 0.000000
0.850861 0.103485 0.000000
0.880859 0.103485 0.000000
0.910767 0.103485 0.000000
0.940582 0.103485 0.000000
0.970367 0.103485 0.000000
1.000000 0.103485 0.000000
0.000000 0.136871 0.000000
0.042725 0.136871 0.000000
0.080719 0.136871 0.000000
0.117126 0.136871 0.000000
0.152557 0.136871 0.000000
0.187225 0.136871 0.000000
0.221375 0.136871 0.000000
0.255005 0.136871 0.000000
0.288269 0.136871 0.000000
0.321198 0.136871 0.000000
0.353821 0.136871 0.000000
0.386200 0.136871 0.000000
0.418304 0.136871 0.000000
0.450195 0.136871 0.000000
0.481903 0.136871 0.000000
0.513428 0.136871 0.000000
0.544800 0.136871 0.000000
0.576019 0.136871 0.000000
0.607056 0.136871 0.000000
0.637939 0.136871 0.000000
0.668671 0.136871 0.000000
0.699341 0.136871 0.000000
0.729858 0.136871 0.000000
0.760284 0.136871 0.000000
0.790558 0.136871 0.000000
0.820770 0.136871 0.000000
0.850861 0.136871 0.000000
0.880859 0.136871 0.000000
0.910767 0.136871 0.000000
0.940582 0.136871 0.000000
0.970367 0.136871 0.000000
1.000000 0.136871 0.000000
0.000000 0.169952 0.000000
0.042725 0.169952 0.000000
0.080719 0.169952 0.000000
0.117126 0.169952 0.000000
0.152557 0.169952 0.000000
0.187225 0.169952 0.000000
0.221375 0.169952 0.000000
0.255005 0.169952 0.000000
0.288269 0.169952 0.000000
0.321198 0.169952 0.000000
0.353821 0.169952 0.000000
0.386200 0.169952 0.000000
0.418304 0.169952 0.000000
0.450195 0.169952 0.000000
0.481903 0.169952 0.000000
0.513428 0.169952 0.000000
0.544800 0.169952 0.000000
0.576019 0.169952 0.000000
0.607056 0.169952 0.000000
0.637939 0.169952 0.000000
0.668671 0.169952 0.000000
0.699341 0.169952 0.000000
0.729858 0.169952 0.000000
0.760284 0.169952 0.000000
0.790558 0.169952 0.000000
0.820770 0.169952 0.000000
0.850861 0.169952 0.000000
0.880859 0.169952 0.000000
0.910767 0.169952 0.000000
0.940582 0.169952 0.000000
0.970367 0.169952 0.000000
1.000000 0.169952 0.000000
0.000000 0.202911 0.000000
0.042725 0.202911 0.000000
0.080719 0.202911 0.000000
0.117126 0.202911 0.000000
0.152557 0.202911 0.000000
0.187225 0.202911 0.000000
0.221375 0.202911 0.000000
0.255005 0.202911 0.000000
0.288269 0.202911 0.000000
0.321198 0.202911 0.000000
0.353821 0.202911 0.000000
0.386200 0.202911 0.000000
0.418304 0.202911 0.000000
0.450195 0.202911 0.000000
0.481903 0.202911 0.000000
0.513428 0.202911 0.000000
0.544800 0.202911 0.000000
0.576019 0.202911 0.000000
0.607056 0.202911 0.000000
0.637939 0.202911 0.000000
0.668671 0.202911 0.000000
0.699341 0.202911 0.000000
0.729858 0.202911 0.000000
0.760284 0.202911 0.000000
0.790558 0.202911 0.000000
0.820770 0.202911 0.000000
0.850861 0.202911 0.000000
0.880859 0.202911 0.000000
0.910767 0.202911 0.000000
0.940582 0.202911 0.000000
0.970367 0.202911 0.000000
1.000000 0.202911 0.000000
0.000000 0.235687 0.000000
0.042725 0.235687 0.000000
0.080719 0.235687 0.000000
0.117126 0.235687 0.000000
0.152557 0.235687 0.000000
0.187225 0.235687 0.000000
0.221375 0.235687 0.000000
0.255005 0.235687 0.000000
0.288269 0.235687 0.000000
0.321198 0.235687 0.000000
0.353821 0.235687 0.000000
0.386200 0.235687 0.000000
0.418304 0.235687 0.000000
0.450195 0.235687 0.000000
0.481903 0.235687 0.000000
0.513428 0.235687 0.000000
0.544800 0.235687 0.000000
0.576019 0.235687 0.000000
0.607056 0.235687 0.000000
0.637939 0.235687 0.000000
0.668671 0.235687 0.000000
0.699341 0.235687 0.000000
0.729858 0.235687 0.000000
0.760284 0.235687 0.000000
0.790558 0.235687 0.000000
0.820770 0.235687 0.000000
0.850861 0.235687 0.000000
0.880859 0.235687 0.000000
0.910767 0.235687 0.000000
0.940582 0.235687 0.000000
0.970367 0.235687 0.000000
1.000000 0.235687 0.000000
0.000000 0.268311 0.000000
0.042725 0.268311 0.000000
0.080719 0.268311 0.000000
0.117126 0.268311 0.000000
0.152557 0.268311 0.000000
0.187225 0.268311 0.000000
0.221375 0.268311 0.000000
0.255005 0.268311 0.000000
0.288269 0.268311 0.000000
0.321198 0.268311 0.000000
0.353821 0.268311 0.000000
0.386200 0.268311 0.000000
0.418304 0.268311 0.000000
0.450195 0.268311 0.000000
0.481903 0.268311 0.000000
0.513428 0.268311 0.000000
0.544800 0.268311 0.000000
0.576019 0.268311 0.000000
0.607056 0.268311 0.000000
0.637939 0.268311 0.000000
0.668671 0.268311 0.000000
0.699341 0.268311 0.000000
0.729858 0.268311 0.000000
0.760284 0.268311 0.000000
0.790558 0.268311 0.000000
0.820770 0.268311 0.000000
0.850861 0.268311 0.000000
0.880859 0.268311 0.000000
0.910767 0.268311 0.000000
0.940582 0.268311 0.000000
0.970367 0.268311 0.000000
1.000000 0.268311 0.000000
0.000000 0.300812 0.000000
0.042725 0.300812 0.000000
0.080719 0.300812 0.000000
0.117126 0.300812 0.000000
0.152557 0.300812 0.000000
0.187225 0.300812 0.000000
0.221375 0.300812 0.000000
0.255005 0.300812 0.000000
0.288269 0.300812 0.000000
0.321198 0.300812 0.000000
0.353821 0.300812 0.000000
0.386200 0.300812 0.000000
0.418304 0.300812 0.000000
0.450195 0.300812 0.000000
0.481903 0.300812 0.000000
0.513428 0.300812 0.000000
0.544800 0.300812 0.000000
0.576019 0.300812 0.000000
0.607056 0.300812 0.000000
0.637939 0.300812 0.000000
0.668671 0.300812 0.000000
0.699341 0.300812 0.000000
0.729858 0.300812 0.000000
0.760284 0.300812 0.000000
0.790558 0.300812 0.000000
0.820770 0.300812 0.000000
0.850861 0.300812 0.000000
0.880859 0.300812 0.000000
0.910767 0.300812 0.000000
0.940582 0.300812 0.000000
0.970367 0.300812 0.000000
1.000000 0.300812 0.000000
0.000000 0.333221 0.000000
0.042725 0.333221 0.000000
0.080719 0.333221 0.000000
0.117126 0.333221 0.000000
0.152557 0.333221 0.000000
0.187225 0.333221 0.000000
0.221375 0.333221 0.000000
0.255005 0.333221 0.000000
0.288269 0.333221 0.000000
0.321198 0.333221 0.000000
0.353821 0.333221 0.000000
0.386200 0.333221 0.000000
0.418304 0.333221 0.000000
0.450195 0.333221 0.000000
0.481903 0.333221 0.000000
0.513428 0.333221 0.000000
0.544800 0.333221 0.000000
0.576019 0.333221 0.000000
0.607056 0.333221 0.000000
0.637939 0.333221 0.000000
0.668671 0.333221 0.000000
0.699341 0.333221 0.000000
0.729858 0.333221 0.000000
0.760284 0.333221 0.000000
0.790558 0.333221 0.000000
0.820770 0.333221 0.000000
0.850861 0.333221 0.000000
0.880859 0.333221 0.000000
0.910767 0.333221 0.000000
0.940582 0.333221 0.000000
0.970367 0.333221 0.000000
1.000000 0.333221 0.000000
0.000000 0.365570 0.000000
0.042725 0.365570 0.000000
0.080719 0.365570 0.000000
0.117126 0.365570 0.000000
0.152557 0.365570 0.000000
0.187225 0.365570 0.000000
0.221375 0.365570 0.000000
0.255005 0.365570 0.000000
0.288269 0.365570 0.000000
0.321198 0.365570 0.000000
0.353821 0.365570 0.000000
0.386200 0.365570 0.000000
0.418304 0.365570 0.000000
0.450195 0.365570 0.000000
0.481903 0.365570 0.000000
0.513428 0.365570 0.000000
0.544800 0.365570 0.000000
0.576019 0.365570 0.000000
0.607056 0.365570 0.000000
0.637939 0.365570 0.000000
0.668671 0.365570 0.000000
0.699341 0.365570 0.000000
0.729858 0.365570 0.000000
0.760284 0.365570 0.000000
0.790558 0.365570 0.000000
0.820770 0.365570 0.000000
0.850861 0.365570 0.000000
0.880859 0.365570 0.000000
0.910767 0.365570 0.000000
0.940582 0.365570 0.000000
0.970367 0.365570 0.000000
1.000000 0.365570 0.000000
0.000000 0.397797 0.000000
0.042725 0.397797 0.000000
0.080719 0.397797 0.000000
0.117126 0.397797 0.000000
0.152557 0.397797 0.000000
0.187225 0.397797 0.000000
0.221375 0.397797 0.000000
0.255005 0.397797 0.000000
0.288269 0.397797 0.000000
0.321198 0.397797 0.000000
0.353821 0.397797 0.000000
0.386200 0.397797 0.000000
0.418304 0.397797 0.000000
0.450195 0.397797 0.000000
0.481903 0.397797 0.000000
0.513428 0.397797 0.000000
0.544800 0.397797 0.000000
0.576019 0.397797 0.000000
0.607056 0.397797 0.000000
0.637939 0.397797 0.000000
0.668671 0.397797 0.000000
0.699341 0.397797 0.000000
0.729858 0.397797 0.000000
0.760284 0.397797 0.000000
0.790558 0.397797 0.000000
0.820770 0.397797 0.000000
0.850861 0.397797 0.000000
0.880859 0.397797 0.000000
0.910767 0.397797 0.000000
0.940582 0.397797 0.000000
0.970367 0.397797 0.000000
1.000000 0.397797 0.000000
0.000000 0.429962 0.000000
0.042725 0.429962 0.000000
0.080719 0.429962 0.000000
0.117126 0.429962 0.000000
0.152557 0.429962 0.000000
0.187225 0.429962 0.000000
0.221375 0.429962 0.000000
0.255005 0.429962 0.000000
0.288269 0.429962 0.000000
0.321198 0.429962 0.000000
0.353821 0.429962 0.000000
0.386200 0.429962 0.000000
0.418304 0.429962 0.000000
0.450195 0.429962 0.000000
0.481903 0.429962 0.000000
0.513428 0.429962 0.000000
0.544800 0.429962 0.000000
0.576019 0.429962 0.000000
0.607056 0.429962 0.000000
0.637939 0.429962 0.000000
0.668671 0.429962 0.000000
0.699341 0.429962 0.000000
0.729858 0.429962 0.000000
0.760284 0.429962 0.000000
0.790558 0.429962 0.000000
0.820770 0.429962 0.000000
0.850861 0.429962 0.000000
0.880859 0.429962 0.000000
0.910767 0.429962 0.000000
0.940582 0.429962 0.000000
0.970367 0.429962 0.000000
1.000000 0.429962 0.000000
0.000000 0.462036 0.000000
0.042725 0.462036 0.000000
0.080719 0.462036 0.000000
0.117126 0.462036 0.000000
0.152557 0.462036 0.000000
0.187225 0.462036 0.000000
0.221375 0.462036 0.000000
0.255005 0.462036 0.000000
0.288269 0.462036 0.000000
0.321198 0.462036 0.000000
0.353821 0.462036 0.000000
0.386200 0.462036 0.000000
0.418304 0.462036 0.000000
0.450195 0.462036 0.000000
0.481903 0.462036 0.000000
0.513428 0.462036 0.000000
0.544800 0.462036 0.000000
0.576019 0.462036 0.000000
0.607056 0.462036 0.000000
0.637939 0.462036 0.000000
0.668671 0.462036 0.000000
0.699341 0.462036 0.000000
0.729858 0.462036 0.000000
0.760284 0.462036 0.000000
0.790558 0.462036 0.000000
0.820770 0.462036 0.000000
0.850861 0.462036 0.000000
0.880859 0.462036 0.000000
0.910767 0.462036 0.000000
0.940582 0.462036 0.000000
0.970367 0.462036 0.000000
1.000000 0.462036 0.000000
0.000000 0.494049 0.000000
0.042725 0.494049 0.000000
0.080719 0.494049 0.000000
0.117126 0.494049 0.000000
0.152557 0.494049 0.000000
0.187225 0.494049 0.000000
0.221375 0.494049 0.000000
0.255005 0.494049 0.000000
0.288269 0.494049 0.000000
0.321198 0.494049 0.000000
0.353821 0.494049 0.000000
0.386200 0.494049 0.000000
0.418304 0.494049 0.000000
0.450195 0.494049 0.000000
0.481903 0.494049 0.000000
0.513428 0.494049 0.000000
0.544800 0.494049 0.000000
0.576019 0.494049 0.000000
0.607056 0.494049 0.000000
0.637939 0.494049 0.000000
0.668671 0.494049 0.000000
0.699341 0.494049 0.000000
0.729858 0.494049 0.000000
0.760284 0.494049 0.000000
0.790558 0.494049 0.000000
0.820770 0.494049 0.000000
0.850861 0.494049 0.000000
0.880859 0.494049 0.000000
0.910767 0.494049 0.000000
0.940582 0.494049 0.000000
0.970367 0.494049 0.000000
1.000000 0.494049 0.000000
0.000000 0.526062 0.000000
0.042725 0.526062 0.000000
0.080719 0.526062 0.000000
0.117126 0.526062 0.000000
0.152557 0.526062 0.000000
0.187225 0.526062 0.000000
0.221375 0.526062 0.000000
0.255005 0.526062 0.000000
0.288269 0.526062 0.000000
0.321198 0.526062 0.000000
0.353821 0.526062 0.000000
0.386200 0.526062 0.000000
0.418304 0.526062 0.000000
0.450195 0.526062 0.000000
0.481903 0.526062 0.000000
0.513428 0.526062 0.000000
0.544800 0.526062 0.000000
0.576019 0.526062 0.000000
0.607056 0.526062 0.000000
0.637939 0.526062 0.000000
0.668671 0.526062 0.000000
0.699341 0.526062 0.000000
0.729858 0.526062 0.000000
0.760284 0.526062 0.000000
0.790558 0.526062 0.000000
0.820770 0.526062 0.000000
0.850861 0.526062 0.000000
0.880859 0.526062 0.000000
0.910767 0.526062 0.000000
0.940582 0.526062 0.000000
0.970367 0.526062 0.000000
1.000000 0.526062 0.000000
0.000000 0.557953 0.000000
0.042725 0.557953 0.000000
0.080719 0.557953 0.000000
0.117126 0.557953 0.000000
0.152557 0.557953 0.000000
0.187225 0.557953 0.000000
0.221375 0.557953 0.000000
0.255005 0.557953 0.000000
0.288269 0.557953 0.000000
0.321198 0.557953 0.000000
0.353821 0.557953 0.000000
0.386200 0.557953 0.000000
0.418304 0.557953 0.000000
0.450195 0.557953 0.000000
0.481903 0.557953 0.000000
0.513428 0.557953 0.000000
0.544800 0.557953 0.000000
0.576019 0.557953 0.000000
0.607056 0.557953 0.000000
0.637939 0.557953 0.000000
0.668671 0.557953 0.000000
0.699341 0.557953 0.000000
0.729858 0.557953 0.000000
0.760284 0.557953 0.000000
0.790558 0.557953 0.000000
0.820770 0.557953 0.000000
0.850861 0.557953 0.000000
0.880859 0.557953 0.000000
0.910767 0.557953 0.000000
0.940582 0.557953 0.000000
0.970367 0.557953 0.000000
1.000000 0.557953 0.000000
0.000000 0.589813 0.000000
0.042725 0.589813 0.000000
0.080719 0.589813 0.000000
0.117126 0.589813 0.000000
0.152557 0.589813 0.000000
0.187225 0.589813 0.000000
0.221375 0.589813 0.000000
0.255005 0.589813 0.000000
0.288269 0.589813 0.000000
0.321198 0.589813 0.000000
0.353821 0.589813 0.000000
0.386200 0.589813 0.000000
0.418304 0.589813 0.000000
0.450195 0.589813 0.000000
0.481903 0.589813 0.000000
0.513428 0.589813 0.000000
0.544800 0.589813 0.000000
0.576019 0.589813 0.000000
0.607056 0.589813 0.000000
0.637939 0.589813 0.000000
0.668671 0.589813 0.000000
0.699341 0.589813 0.000000
0.729858 0.589813 0.000000
0.760284 0.589813 0.000000
0.790558 0.589813 0.000000
0.820770 0.589813 0.000000
0.850861 0.589813 0.000000
0.880859 0.589813 0.000000
0.910767 0.589813 0.000000
0.940582 0.589813 0.000000
0.970367 0.589813 0.000000
1.000000 0.589813 0.000000
0.000000 0.621613 0.000000
0.042725 0.621613 0.000000
0.080719 0.621613 0.000000
0.117126 0.621613 0.000000
0.152557 0.621613 0.000000
0.187225 0.621613 0.000000
0.221375 0.621613 0.000000
0.255005 0.621613 0.000000
0.288269 0.621613 0.000000
0.321198 0.621613 0.000000
0.353821 0.621613 0.000000
0.386200 0.621613 0.000000
0.418304 0.621613 0.000000
0.450195 0.621613 0.000000
0.481903 0.621613 0.000000
0.513428 0.621613 0.000000
0.544800 0.621613 0.000000
0.576019 0.621613 0.000000
0.607056 0.621613 0.000000
0.637939 0.621613 0.000000
0.668671 0.621613 0.000000
0.699341 0.621613 0.000000
0.729858 0.621613 0.000000
0.760284 0.621613 0.000000
0.790558 0.621613 0.000000
0.820770 0.621613 0.000000
0.850861 0.621613 0.000000
0.880859 0.621613 0.000000
0.910767 0.621613 0.000000
0.940582 0.621613 0.000000
0.970367 0.621613 0.000000
1.000000 0.621613 0.000000
0.000000 0.653351 0.000000
0.042725 0.653351 0.000000
0.080719 0.653351 0.000000
0.117126 0.653351 0.000000
0.152557 0.653351 0.000000
0.187225 0.653351 0.000000
0.221375 0.653351 0.000000
0.255005 0.653351 0.000000
0.288269 0.653351 0.000000
0.321198 0.653351 0.000000
0.353821 0.653351 0.000000
0.386200 0.653351 0.000000
0.418304 0.653351 0.000000
0.450195 0.653351 0.000000
0.481903 0.653351 0.000000
0.513428 0.653351 0.000000
0.544800 0.653351 0.000000
0.576019 0.653351 0.000000
0.607056 0.653351 0.000000
0.637939 0.653351 0.000000
0.668671 0.653351 0.000000
0.699341 0.653351 0.000000
0.729858 0.653351 0.000000
0.760284 0.653351 0.000000
0.790558 0.653351 0.000000
0.820770 0.653351 0.000000
0.850861 0.653351 0.000000
0.880859 0.653351 0.000000
0.910767 0.653351 0.000000
0.940582 0.653351 0.000000
0.970367 0.653351 0.000000
1.000000 0.653351 0.000000
0.000000 0.685059 0.000000
0.042725 0.685059 0.000000
0.080719 0.685059 0.000000
0.117126 0.685059 0.000000
0.152557 0.685059 0.000000
0.187225 0.685059 0.000000
0.221375 0.685059 0.000000
0.255005 0.685059 0.000000
0.288269 0.685059 0.000000
0.321198 0.685059 0.000000
0.353821 0.685059 0.000000
0.386200 0.685059 0.000000
0.418304 0.685059 0.000000
0.450195 0.685059 0.000000
0.481903 0.685059 0.000000
0.513428 0.685059 0.000000
0.544800 0.685059 0.000000
0.576019 0.685059 0.000000
0.607056 0.685059 0.000000
0.637939 0.685059 0.000000
0.668671 0.685059 0.000000
0.699341 0.685059 0.000000
0.729858 0.685059 0.000000
0.760284 0.685059 0.000000
0.790558 0.685059 0.000000
0.820770 0.685059 0.000000
0.850861 0.685059 0.000000
0.880859 0.685059 0.000000
0.910767 0.685059 0.000000
0.940582 0.685059 0.000000
0.970367 0.685059 0.000000
1.000000 0.685059 0.000000
0.000000 0.716736 0.000000
0.042725 0.716736 0.000000
0.080719 0.716736 0.000000
0.117126 0.716736 0.000000
0.152557 0.716736 0.000000
0.187225 0.716736 0.000000
0.221375 0.716736 0.000000
0.255005 0.716736 0.000000
0.288269 0.716736 0.000000
0.321198 0.716736 0.000000
0.353821 0.716736 0.000000
0.386200 0.716736 0.000000
0.418304 0.716736 0.000000
0.450195 0.716736 0.000000
0.481903 0.716736 0.000000
0.513428 0.716736 0.000000
0.544800 0.716736 0.000000
0.576019 0.716736 0.000000
0.607056 0.716736 0.000000
0.637939 0.716736 0.000000
0.668671 0.716736 0.000000
0.699341 0.716736 0.000000
0.729858 0.716736 0.000000
0.760284 0.716736 0.000000
0.790558 0.716736 0.000000
0.820770 0.716736 0.000000
0.850861 0.716736 0.000000
0.880859 0.716736 0.000000
0.910767 0.716736 0.000000
0.940582 0.716736 0.000000
0.970367 0.716736 0.000000
1.000000 0.716736 0.000000
0.000000 0.748352 0.000000
0.042725 0.748352 0.000000
0.080719 0.748352 0.000000
0.117126 0.748352 0.000000
0.152557 0.748352 0.000000
0.187225 0.748352 0.000000
0.221375 0.748352 0.000000
0.255005 0.748352 0.000000
0.288269 0.748352 0.000000
0.321198 0.748352 0.000000
0.353821 0.748352 0.000000
0.386200 0.748352 0.000000
0.418304 0.748352 0.000000
0.450195 0.748352 0.000000
0.481903 0.748352 0.000000
0.513428 0.748352 0.000000
0.544800 0.748352 0.000000
0.576019 0.748352 0.000000
0.607056 0.748352 0.000000
0.637939 0.748352 0.000000
0.668671 0.748352 0.000000
0.699341 0.748352 0.000000
0.729858 0.748352 0.000000
0.760284 0.748352 0.000000
0.790558 0.748352 0.000000
0.820770 0.748352 0.000000
0.850861 0.748352 0.000000
0.880859 0.748352 0.000000
0.910767 0.748352 0.000000
0.940582 0.748352 0.000000
0.970367 0.748352 0.000000
1.000000 0.748352 0.000000
0.000000 0.779907 0.000000
0.042725 0.779907 0.000000
0.080719 0.779907 0.000000
0.117126 0.779907 0.000000
0.152557 0.779907 0.000000
0.187225 0.779907 0.000000
0.221375 0.779907 0.000000
0.255005 0.779907 0.000000
0.288269 0.779907 0.000000
0.321198 0.779907 0.000000
0.353821 0.779907 0.000000
0.386200 0.779907 0.000000
0.418304 0.779907 0.000000
0.450195 0.779907 0.000000
0.481903 0.779907 0.000000
0.513428 0.779907 0.000000
0.544800 0.779907 0.000000
0.576019 0.779907 0.000000
0.607056 0.779907 0.000000
0.637939 0.779907 0.000000
0.668671 0.779907 0.000000
0.699341 0.779907 0.000000
0.729858 0.779907 0.000000
0.760284 0.779907 0.000000
0.790558 0.779907 0.000000
0.820770 0.779907 0.000000
0.850861 0.779907 0.000000
0.880859 0.779907 0.000000
0.910767 0.779907 0.000000
0.940582 0.779907 0.000000
0.970367 0.779907 0.000000
1.000000 0.779907 0.000000
0.000000 0.811462 0.000000
0.042725 0.811462 0.000000
0.080719 0.811462 0.000000
0.117126 0.811462 0.000000
0.152557 0.811462 0.000000
0.187225 0.811462 0.000000
0.221375 0.811462 0.000000
0.255005 0.811462 0.000000
0.288269 0.811462 0.000000
0.321198 0.811462 0.000000
0.353821 0.811462 0.000000
0.386200 0.811462 0.000000
0.418304 0.811462 0.000000
0.450195 0.811462 0.000000
0.481903 0.811462 0.000000
0.513428 0.811462 0.000000
0.544800 0.811462 0.000000
0.576019 0.811462 0.000000
0.607056 0.811462 0.000000
0.637939 0.811462 0.000000
0.668671 0.811462 0.000000
0.699341 0.811462 0.000000
0.729858 0.811462 0.000000
0.760284 0.811462 0.000000
0.790558 0.811462 0.000000
0.820770 0.811462 0.000000
0.850861 0.811462 0.000000
0.880859 0.811462 0.000000
0.910767 0.811462 0.000000
0.940582 0.811462 0.000000
0.970367 0.811462 0.000000
1.000000 0.811462 0.000000
0.000000 0.842987 0.000000
0.042725 0.842987 0.000000
0.080719 0.842987 0.000000
0.117126 0.842987 0.000000
0.152557 0.842987 0.000000
0.187225 0.842987 0.000000
0.221375 0.842987 0.000000
0.255005 0.842987 0.000000
0.288269 0.842987 0.000000
0.321198 0.842987 0.000000
0.353821 0.842987 0.000000
0.386200 0.842987 0.000000
0.418304 0.842987 0.000000
0.450195 0.842987 0.000000
0.481903 0.842987 0.000000
0.513428 0.842987 0.000000
0.544800 0.842987 0.000000
0.576019 0.842987 0.000000
0.607056 0.842987 0.000000
0.637939 0.842987 0.000000
0.668671 0.842987 0.000000
0.699341 0.842987 0.000000
0.729858 0.842987 0.000000
0.760284 0.842987 0.000000
0.790558 0.842987 0.000000
0.820770 0.842987 0.000000
0.850861 0.842987 0.000000
0.880859 0.842987 0.000000
0.910767 0.842987 0.000000
0.940582 0.842987 0.000000
0.970367 0.842987 0.000000
1.000000 0.842987 0.000000
0.000000 0.874451 0.000000
0.042725 0.874451 0.000000
0.080719 0.874451 0.000000
0.117126 0.874451 0.000000
0.152557 0.874451 0.000000
0.187225 0.874451 0.000000
0.221375 0.874451 0.000000
0.255005 0.874451 0.000000
0.288269 0.874451 0.000000
0.321198 0.874451 0.000000
0.353821 0.874451 0.000000
0.386200 0.874451 0.000000
0.418304 0.874451 0.000000
0.450195 0.874451 0.000000
0.481903 0.874451 0.000000
0.513428 0.874451 0.000000
0.544800 0.874451 0.000000
0.576019 0.874451 0.000000
